;FLAVOR:Marlin
;TIME:1015
;Filament used: 2.01663m
;Layer height: 0.2
;MINX:79.5
;MINY:92.15
;MINZ:0.3
;MAXX:140.5
;MAXY:127.85
;MAXZ:18.7
;Generated with Cura_SteamEngine 5.4.0
M140 S55
M105
M190 S55
M104 S210
M105
M109 S210
M82 ;absolute extrusion mode
START_PRINT
G92 E0
G92 E0
G1 F1500 E-4
;LAYER_COUNT:88
;LAYER:0
M107
M204 S8000
M205 X30 Y30
G1 F3000 Z1.3
G0 F1800 X79.905 Y92.812 Z1.3
M205 X25 Y25
;TYPE:SKIRT
G1 F3000 Z0.3
G1 F1500 E0
G1 F1800 X80.277 Y92.5 E0.02422
G1 X80.826 Y92.227 E0.05481
G1 X81.3 Y92.15 E0.07877
G1 X97.1 Y92.15 E0.86703
G1 X97.706 Y92.274 E0.89789
G1 X98.238 Y92.555 E0.92791
G1 X98.55 Y92.927 E0.95213
G1 X98.823 Y93.476 E0.98272
G1 X98.9 Y93.95 E1.00668
G1 X98.9 Y105.65 E1.5904
G1 X113 Y105.65 E2.29385
G1 X113 Y104.45 E2.35372
G1 X113.124 Y103.844 E2.38458
G1 X113.405 Y103.312 E2.41459
G1 X113.777 Y103 E2.43882
G1 X114.326 Y102.727 E2.4694
G1 X114.8 Y102.65 E2.49336
G1 X138.7 Y102.65 E3.68574
G1 X139.306 Y102.774 E3.7166
G1 X139.838 Y103.055 E3.74662
G1 X140.15 Y103.427 E3.77084
G1 X140.423 Y103.976 E3.80143
G1 X140.5 Y104.45 E3.82539
G1 X140.482 Y121.29 E4.66554
G1 X140.27 Y122.847 E4.74393
G1 X139.604 Y124.453 E4.83067
G1 X138.519 Y125.869 E4.91967
G1 X137.11 Y126.949 E5.00824
G1 X135.455 Y127.637 E5.09766
G1 X133.906 Y127.838 E5.17559
G1 X81.3 Y127.85 E7.80011
G1 X80.694 Y127.726 E7.83097
G1 X80.162 Y127.445 E7.86099
G1 X79.85 Y127.073 E7.88521
G1 X79.577 Y126.524 E7.9158
G1 X79.5 Y126.05 E7.93976
G1 X79.5 Y93.95 E9.54123
G1 X79.624 Y93.344 E9.57209
G1 X79.905 Y92.812 E9.60211
M205 X30 Y30
G0 X80.455 Y92.858
M205 X25 Y25
G1 X80.949 Y92.612 E9.62964
G1 X81.3 Y92.55 E9.64742
G1 X97.1 Y92.55 E10.43569
G1 X97.519 Y92.628 E10.45695
G1 X97.983 Y92.873 E10.48313
G1 X98.192 Y93.105 E10.49871
G1 X98.438 Y93.599 E10.52624
G1 X98.5 Y93.95 E10.54402
G1 X98.5 Y106.05 E11.1477
G1 X113.4 Y106.05 E11.89106
G1 X113.4 Y104.45 E11.97088
G1 X113.478 Y104.031 E11.99215
G1 X113.723 Y103.567 E12.01833
G1 X113.955 Y103.358 E12.0339
G1 X114.449 Y103.112 E12.06144
G1 X114.8 Y103.05 E12.07922
G1 X138.7 Y103.05 E13.2716
G1 X139.119 Y103.128 E13.29286
G1 X139.583 Y103.373 E13.31904
G1 X139.792 Y103.605 E13.33461
G1 X140.038 Y104.099 E13.36215
G1 X140.1 Y104.45 E13.37993
G1 X140.086 Y121.236 E14.21739
G1 X139.881 Y122.743 E14.29326
G1 X139.255 Y124.252 E14.37477
G1 X138.234 Y125.584 E14.4585
G1 X136.909 Y126.6 E14.5418
G1 X135.354 Y127.246 E14.62581
G1 X133.854 Y127.441 E14.70127
G1 X81.3 Y127.45 E17.3232
G1 X80.881 Y127.372 E17.34447
G1 X80.417 Y127.127 E17.37064
G1 X80.208 Y126.895 E17.38622
G1 X79.962 Y126.401 E17.41376
G1 X79.9 Y126.05 E17.43154
G1 X79.9 Y93.95 E19.03301
G1 X79.978 Y93.531 E19.05428
G1 X80.223 Y93.067 E19.08045
G1 X80.455 Y92.858 E19.09603
M205 X30 Y30
G0 X80.645 Y93.21
M205 X25 Y25
G1 X81.027 Y93.004 E19.11769
G1 X81.3 Y92.95 E19.13157
G1 X97.1 Y92.95 E19.91983
G1 X97.438 Y93.02 E19.93706
G1 X97.701 Y93.157 E19.95185
G1 X97.84 Y93.295 E19.96162
G1 X98.046 Y93.677 E19.98327
G1 X98.1 Y93.95 E19.99716
G1 X98.1 Y106.45 E20.62079
G1 X113.8 Y106.45 E21.40406
G1 X113.8 Y104.45 E21.50384
G1 X113.87 Y104.112 E21.52106
G1 X114.007 Y103.849 E21.53586
G1 X114.145 Y103.71 E21.54563
G1 X114.527 Y103.504 E21.56728
G1 X114.8 Y103.45 E21.58117
G1 X138.7 Y103.45 E22.77354
G1 X139.038 Y103.52 E22.79076
G1 X139.301 Y103.657 E22.80556
G1 X139.44 Y103.795 E22.81533
G1 X139.646 Y104.177 E22.83698
G1 X139.7 Y104.45 E22.85087
G1 X139.69 Y121.182 E23.68563
G1 X139.492 Y122.635 E23.75879
G1 X138.905 Y124.051 E23.83526
G1 X137.949 Y125.299 E23.9137
G1 X136.705 Y126.252 E23.99188
G1 X135.253 Y126.855 E24.07032
G1 X133.802 Y127.044 E24.14332
G1 X81.3 Y127.05 E26.76265
G1 X80.962 Y126.98 E26.77987
G1 X80.699 Y126.843 E26.79467
G1 X80.56 Y126.705 E26.80444
G1 X80.354 Y126.323 E26.82609
G1 X80.3 Y126.05 E26.83998
G1 X80.3 Y93.95 E28.44145
G1 X80.37 Y93.612 E28.45867
G1 X80.507 Y93.349 E28.47347
G1 X80.645 Y93.21 E28.48324
M205 X30 Y30
G0 X81.139 Y93.831
M205 X25 Y25
G1 X81.3 Y93.75 E28.49223
G1 X97.1 Y93.75 E29.2805
G1 X97.219 Y93.789 E29.28675
G1 X97.3 Y93.95 E29.29574
G1 X97.3 Y107.25 E29.95928
G1 X114.6 Y107.25 E30.82238
G1 X114.6 Y104.45 E30.96207
G1 X114.639 Y104.331 E30.96832
G1 X114.8 Y104.25 E30.97731
G1 X138.7 Y104.25 E32.16968
G1 X138.819 Y104.289 E32.17593
G1 X138.9 Y104.45 E32.18492
G1 X138.898 Y121.074 E33.0143
G1 X138.714 Y122.423 E33.08222
G1 X138.206 Y123.649 E33.14843
G1 X137.379 Y124.729 E33.2163
G1 X136.3 Y125.555 E33.28409
G1 X135.051 Y126.073 E33.35155
G1 X133.698 Y126.25 E33.41963
G1 X81.3 Y126.25 E36.03377
G1 X81.181 Y126.211 E36.04002
G1 X81.1 Y126.05 E36.04901
G1 X81.1 Y93.95 E37.65049
G1 X81.139 Y93.831 E37.65674
M205 X30 Y30
G0 X80.85 Y93.554
M205 X25 Y25
G1 X81.12 Y93.393 E37.67242
G1 X81.3 Y93.35 E37.68165
G1 X97.1 Y93.35 E38.46992
G1 X97.344 Y93.409 E38.48244
G1 X97.496 Y93.5 E38.49128
G1 X97.657 Y93.77 E38.50696
G1 X97.7 Y93.95 E38.5162
G1 X97.7 Y106.85 E39.15978
G1 X114.2 Y106.85 E39.98297
G1 X114.2 Y104.45 E40.1027
G1 X114.259 Y104.206 E40.11523
G1 X114.35 Y104.054 E40.12407
G1 X114.62 Y103.893 E40.13975
G1 X114.8 Y103.85 E40.14898
G1 X138.7 Y103.85 E41.34136
G1 X138.944 Y103.909 E41.35388
G1 X139.096 Y104 E41.36272
G1 X139.257 Y104.27 E41.3784
G1 X139.3 Y104.45 E41.38764
G1 X139.294 Y121.128 E42.21971
G1 X139.103 Y122.531 E42.29035
G1 X138.556 Y123.85 E42.36159
G1 X137.664 Y125.014 E42.43475
G1 X136.504 Y125.903 E42.50766
G1 X135.152 Y126.464 E42.58069
G1 X133.75 Y126.647 E42.65123
G1 X81.3 Y126.65 E45.26797
G1 X81.056 Y126.591 E45.2805
G1 X80.904 Y126.5 E45.28933
G1 X80.743 Y126.23 E45.30502
G1 X80.7 Y126.05 E45.31425
G1 X80.7 Y93.95 E46.91573
G1 X80.759 Y93.706 E46.92825
G1 X80.85 Y93.554 E46.93709
M205 X30 Y30
G1 F1500 E42.93709
G1 F3000 Z1.3
;MESH:base.stl
G0 F1800 X114.926 Y108.05 Z1.3
M205 X25 Y25
;TYPE:WALL-INNER
G1 F3000 Z0.3
G1 F1500 E46.93709
G1 F1800 X97.031 Y108.047 E47.82987
G1 X96.846 Y107.995 E47.83946
G1 X96.657 Y107.856 E47.85117
G1 X96.502 Y107.583 E47.86683
G1 X96.5 Y94.55 E48.51705
G1 X81.9 Y94.55 E49.24544
G1 X81.9 Y125.45 E50.78705
G1 X133.654 Y125.449 E53.36907
G1 X134.836 Y125.295 E53.42854
G1 X135.898 Y124.854 E53.48591
G1 X136.807 Y124.157 E53.54306
G1 X137.504 Y123.248 E53.6002
G1 X137.944 Y122.186 E53.65755
G1 X138.1 Y121.004 E53.71703
G1 X138.1 Y105.05 E54.51298
G1 X115.4 Y105.05 E55.64549
G1 X115.4 Y107.545 E55.76997
G1 X115.318 Y107.754 E55.78117
G1 X115.182 Y107.914 E55.79164
G1 X114.926 Y108.05 E55.80611
M205 X30 Y30
G1 F1500 E51.80611
G1 F3000 Z1.3
G0 F1800 X106.7 Y123.149 Z1.3
M205 X25 Y25
G1 F3000 Z0.3
G1 F1500 E55.80611
G1 F1800 X106.08 Y123.054 E55.8374
G1 X105.582 Y122.825 E55.86475
G1 X105.162 Y122.477 E55.89196
G1 X104.925 Y122.168 E55.91139
G1 X104.661 Y121.595 E55.94286
G1 X104.605 Y120.974 E55.97397
G1 X104.696 Y120.43 E56.00149
G1 X104.854 Y120.051 E56.02197
G1 X105.213 Y119.566 E56.05208
G1 X105.646 Y119.233 E56.07933
G1 X106.208 Y119.008 E56.10953
G1 X106.7 Y118.951 E56.13424
G1 X107.244 Y119.02 E56.1616
G1 X107.684 Y119.198 E56.18528
G1 X108.127 Y119.512 E56.21237
G1 X108.528 Y120.015 E56.24446
G1 X108.728 Y120.5 E56.27064
G1 X108.799 Y121.045 E56.29805
G1 X108.704 Y121.67 E56.32959
G1 X108.475 Y122.168 E56.35694
G1 X108.127 Y122.588 E56.38415
G1 X107.684 Y122.902 E56.41124
G1 X107.192 Y123.092 E56.43756
G1 X106.7 Y123.149 E56.46227
M205 X30 Y30
G1 F1500 E52.46227
G1 F3000 Z1.3
G0 F1800 X134.647 Y123.147 Z1.3
M205 X25 Y25
G1 F3000 Z0.3
G1 F1500 E56.46227
G1 F1800 X134.08 Y123.054 E56.49093
G1 X133.582 Y122.825 E56.51828
G1 X133.162 Y122.477 E56.54549
G1 X132.925 Y122.168 E56.56492
G1 X132.661 Y121.595 E56.59639
G1 X132.605 Y120.974 E56.6275
G1 X132.696 Y120.43 E56.65502
G1 X132.871 Y120.017 E56.6774
G1 X133.232 Y119.547 E56.70696
G1 X133.64 Y119.236 E56.73256
G1 X134.15 Y119.022 E56.76015
G1 X134.624 Y118.955 E56.78403
G1 X135.245 Y119.011 E56.81514
G1 X135.818 Y119.275 E56.84662
G1 X136.127 Y119.512 E56.86605
G1 X136.474 Y119.932 E56.89323
G1 X136.704 Y120.43 E56.92059
G1 X136.798 Y121.007 E56.94976
G1 X136.725 Y121.618 E56.98046
G1 X136.507 Y122.125 E57.00799
G1 X136.169 Y122.554 E57.03524
G1 X135.731 Y122.882 E57.06254
G1 X135.215 Y123.087 E57.09024
G1 X134.647 Y123.147 E57.11874
M205 X30 Y30
G0 X134.682 Y122.749
M205 X25 Y25
;TYPE:WALL-OUTER
G1 X134.234 Y122.685 E57.14131
G1 X133.87 Y122.533 E57.16099
G1 X133.48 Y122.233 E57.18554
G1 X133.217 Y121.88 E57.2075
G1 X133.051 Y121.464 E57.22985
G1 X133.002 Y121.024 E57.25194
G1 X133.065 Y120.584 E57.27411
G1 X133.233 Y120.19 E57.29548
G1 X133.503 Y119.841 E57.31749
G1 X133.845 Y119.58 E57.33896
G1 X134.258 Y119.407 E57.3613
G1 X134.674 Y119.352 E57.38223
G1 X135.114 Y119.401 E57.40432
G1 X135.53 Y119.567 E57.42667
G1 X135.92 Y119.867 E57.45121
G1 X136.183 Y120.22 E57.47318
G1 X136.349 Y120.637 E57.49557
G1 X136.399 Y121.035 E57.51558
G1 X136.342 Y121.498 E57.53885
G1 X136.168 Y121.91 E57.56117
G1 X135.897 Y122.259 E57.58321
G1 X135.559 Y122.518 E57.60445
G1 X135.131 Y122.696 E57.62758
G1 X134.682 Y122.749 E57.65014
M205 X30 Y30
G0 X134.484 Y122.721
G1 F1500 E53.65014
G1 F3000 Z1.3
G0 F1800 X114.844 Y107.65 Z1.3
M205 X25 Y25
G1 F3000 Z0.3
G1 F1500 E57.65014
G1 F1800 X97.061 Y107.647 E58.53733
G1 X96.952 Y107.586 E58.54357
G1 X96.9 Y107.47 E58.54991
G1 X96.9 Y94.15 E59.21445
G1 X81.5 Y94.15 E59.98275
G1 X81.5 Y125.85 E61.56427
G1 X133.68 Y125.849 E64.16755
G1 X134.94 Y125.685 E64.23094
G1 X136.1 Y125.204 E64.29359
G1 X137.093 Y124.443 E64.356
G1 X137.854 Y123.45 E64.41842
G1 X138.334 Y122.29 E64.48105
G1 X138.5 Y121.03 E64.54446
G1 X138.5 Y104.65 E65.36166
G1 X115 Y104.65 E66.53408
G1 X114.996 Y107.494 E66.67597
G1 X114.928 Y107.605 E66.68246
G1 X114.844 Y107.65 E66.68721
M205 X30 Y30
G0 X114.644 Y107.65
G1 F1500 E62.68721
G1 F3000 Z1.3
G0 F1800 X106.674 Y122.748 Z1.3
M205 X25 Y25
G1 F3000 Z0.3
G1 F1500 E66.68721
G1 F1800 X106.234 Y122.685 E66.70939
G1 X105.87 Y122.533 E66.72907
G1 X105.48 Y122.233 E66.75362
G1 X105.217 Y121.88 E66.77558
G1 X105.051 Y121.464 E66.79792
G1 X105.002 Y121.024 E66.82001
G1 X105.065 Y120.584 E66.84219
G1 X105.229 Y120.196 E66.8632
G1 X105.497 Y119.848 E66.88512
G1 X105.847 Y119.579 E66.90714
G1 X106.26 Y119.406 E66.92948
G1 X106.726 Y119.352 E66.95288
G1 X107.14 Y119.406 E66.97371
G1 X107.53 Y119.567 E66.99476
G1 X107.903 Y119.848 E67.01806
G1 X108.17 Y120.194 E67.03987
G1 X108.343 Y120.608 E67.06225
G1 X108.399 Y121.048 E67.08438
G1 X108.349 Y121.464 E67.10528
G1 X108.183 Y121.88 E67.12763
G1 X107.883 Y122.27 E67.15218
G1 X107.53 Y122.533 E67.17414
G1 X107.123 Y122.698 E67.19605
G1 X106.674 Y122.748 E67.21859
M205 X30 Y30
G0 X106.476 Y122.72
G1 F1500 E63.21859
G1 F3000 Z1.3
G0 F1800 X136.483 Y122.898 Z1.3
M205 X25 Y25
;TYPE:SKIN
G1 F3000 Z0.3
G1 F1500 E67.21859
G1 F1358.5 X136.872 Y122.355 E67.26274
G1 F1500 X137.121 Y121.741 E67.30241
G1 F1555.1 X137.217 Y121.031 E67.34378
G1 F1496.9 X137.174 Y120.541 E67.37329
G1 F1603.6 X136.881 Y119.881 E67.41373
G1 F1800 X136.548 Y119.402 E67.44284
G1 X136.348 Y119.202 E67.45695
G1 X135.848 Y118.853 E67.48737
G1 X135.227 Y118.629 E67.52031
G1 X134.571 Y118.579 E67.55313
G1 X134.044 Y118.655 E67.57969
G1 X133.447 Y118.909 E67.61206
G1 X132.948 Y119.286 E67.64326
G1 X132.566 Y119.784 E67.67458
G1 X132.305 Y120.394 E67.70768
G1 X132.222 Y121.019 E67.73913
G1 X132.285 Y121.597 E67.76814
G1 X132.503 Y122.197 E67.79999
G1 X132.855 Y122.702 E67.8307
G1 X133.05 Y122.898 E67.84449
G1 X133.529 Y123.231 E67.8736
G1 X134.194 Y123.475 E67.90894
G1 X134.648 Y123.526 E67.93173
G1 X135.297 Y123.457 E67.96429
G1 X135.889 Y123.229 E67.99594
G1 F1535.2 X136.45 Y122.904 E68.03387
G1 F1309.1 X136.483 Y122.898 E68.03617
M205 X30 Y30
G1 F1500 E64.03617
G1 F3000 Z1.3
G0 F1800 X114.954 Y108.426 Z1.3
M205 X25 Y25
G1 F3000 Z0.3
G1 F1500 E68.03617
G1 F1800 X115.222 Y108.337 E68.05026
G1 X115.479 Y108.157 E68.06591
G1 X115.702 Y107.835 E68.08545
G1 X115.777 Y107.486 E68.10326
G1 X115.78 Y105.43 E68.20583
G1 X137.72 Y105.43 E69.30043
G1 X137.72 Y119.784 E70.01655
G1 F1655.2 X137.685 Y120.397 E70.04986
G1 F1528.7 X137.684 Y120.97 E70.08352
G1 F1509.4 X137.55 Y122.022 E70.14662
G1 F1437.1 X137.176 Y122.913 E70.207
G1 F1361.1 X136.873 Y123.334 E70.24122
G1 F1431.4 X136.551 Y123.874 E70.28067
G1 F1659 X135.707 Y124.52 E70.3382
G1 F1800 X134.736 Y124.924 E70.39067
G1 X133.623 Y125.068 E70.44666
G1 X82.28 Y125.07 E73.00817
G1 X82.28 Y94.93 E74.51186
G1 X96.12 Y94.93 E75.20234
G1 X96.123 Y107.546 E75.83176
G1 X96.164 Y107.739 E75.8416
G1 X96.309 Y108.03 E75.85782
G1 X96.558 Y108.268 E75.87501
G1 X96.801 Y108.383 E75.88842
G1 X97.078 Y108.431 E75.90245
G1 X114.954 Y108.426 E76.79428
M205 X30 Y30
G1 F1500 E72.79428
G1 F3000 Z1.3
G0 F1800 X106.786 Y123.523 Z1.3
M205 X25 Y25
G1 F3000 Z0.3
G1 F1500 E76.79428
G1 F1800 X107.257 Y123.467 E76.81795
G1 X107.825 Y123.256 E76.84818
G1 X108.35 Y122.898 E76.87988
G1 X108.545 Y122.702 E76.89367
G1 X108.897 Y122.197 E76.92438
G1 X109.115 Y121.597 E76.95623
G1 X109.178 Y121.019 E76.98524
G1 X109.094 Y120.394 E77.0167
G1 X108.852 Y119.805 E77.04847
G1 X108.457 Y119.297 E77.08057
G1 X107.921 Y118.886 E77.11427
G1 X107.339 Y118.652 E77.14557
G1 X106.7 Y118.571 E77.1777
G1 X106.146 Y118.632 E77.20551
G1 X105.454 Y118.904 E77.2426
G1 X104.926 Y119.316 E77.27602
G1 X104.529 Y119.841 E77.30885
G1 X104.312 Y120.377 E77.3377
G1 X104.222 Y121.019 E77.37005
G1 X104.285 Y121.597 E77.39905
G1 X104.503 Y122.197 E77.4309
G1 X104.855 Y122.702 E77.46161
G1 X105.05 Y122.898 E77.47541
G1 X105.552 Y123.247 E77.50591
G1 X106.199 Y123.474 E77.54012
G1 X106.786 Y123.523 E77.56951
M205 X30 Y30
G1 F1500 E73.56951
G1 F3000 Z1.3
G0 F1800 X83.007 Y124.868 Z1.3
M205 X25 Y25
G1 F3000 Z0.3
G1 F1500 E77.56951
G1 F1800 X82.479 Y124.34 E77.60676
M205 X30 Y30
G0 X82.479 Y123.774
M205 X25 Y25
G1 X83.573 Y124.868 E77.68395
M205 X30 Y30
G0 X84.139 Y124.868
M205 X25 Y25
G1 X82.479 Y123.209 E77.80103
M205 X30 Y30
G0 X82.479 Y122.643
M205 X25 Y25
G1 X84.705 Y124.868 E77.95805
M205 X30 Y30
G0 X85.27 Y124.868
M205 X25 Y25
G1 X82.479 Y122.077 E78.15497
M205 X30 Y30
G0 X82.479 Y121.512
M205 X25 Y25
G1 X85.836 Y124.868 E78.39179
M205 X30 Y30
G0 X86.402 Y124.868
M205 X25 Y25
G1 X82.479 Y120.946 E78.66855
M205 X30 Y30
G0 X82.479 Y120.38
M205 X25 Y25
G1 X86.967 Y124.868 E78.9852
M205 X30 Y30
G0 X87.533 Y124.868
M205 X25 Y25
G1 X82.479 Y119.815 E79.34175
M205 X30 Y30
G0 X82.479 Y119.249
M205 X25 Y25
G1 X88.099 Y124.868 E79.73824
M205 X30 Y30
G0 X88.664 Y124.868
M205 X25 Y25
G1 X82.479 Y118.683 E80.17462
M205 X30 Y30
G0 X82.479 Y118.117
M205 X25 Y25
G1 X89.23 Y124.868 E80.65094
M205 X30 Y30
G0 X89.796 Y124.868
M205 X25 Y25
G1 X82.479 Y117.552 E81.16716
M205 X30 Y30
G0 X82.479 Y116.986
M205 X25 Y25
G1 X90.361 Y124.868 E81.72328
M205 X30 Y30
G0 X90.927 Y124.868
M205 X25 Y25
G1 X82.479 Y116.42 E82.31933
M205 X30 Y30
G0 X82.479 Y115.855
M205 X25 Y25
G1 X91.493 Y124.868 E82.95528
M205 X30 Y30
G0 X92.058 Y124.868
M205 X25 Y25
G1 X82.479 Y115.289 E83.63113
M205 X30 Y30
G0 X82.479 Y114.723
M205 X25 Y25
G1 X92.624 Y124.868 E84.34692
M205 X30 Y30
G0 X93.19 Y124.868
M205 X25 Y25
G1 X82.479 Y114.158 E85.1026
M205 X30 Y30
G0 X82.479 Y113.592
M205 X25 Y25
G1 X93.755 Y124.868 E85.89818
M205 X30 Y30
G0 X94.321 Y124.868
M205 X25 Y25
G1 X82.479 Y113.026 E86.7337
M205 X30 Y30
G0 X82.479 Y112.461
M205 X25 Y25
G1 X94.887 Y124.868 E87.60912
M205 X30 Y30
G0 X95.453 Y124.868
M205 X25 Y25
G1 X82.479 Y111.895 E88.52447
M205 X30 Y30
G0 X82.479 Y111.329
M205 X25 Y25
G1 X96.018 Y124.868 E89.47972
M205 X30 Y30
G0 X96.584 Y124.868
M205 X25 Y25
G1 X82.479 Y110.764 E90.47486
M205 X30 Y30
