;FLAVOR:Marlin
;TIME:283
;Filament used: 0.152539m
;Layer height: 0.2
;MINX:103.3
;MINY:102.8
;MINZ:0.3
;MAXX:116.7
;MAXY:117.2
;MAXZ:13.9
;Generated with Cura_SteamEngine 5.4.0
M140 S55
M105
M190 S55
M104 S210
M105
M109 S210
M82 ;absolute extrusion mode
START_PRINT
G92 E0
G92 E0
G1 F1500 E-4
;LAYER_COUNT:69
;LAYER:0
M107
M204 S8000
M205 X30 Y30
G1 F3000 Z1.3
G0 F1800 X103.788 Y103.604 Z1.3
M205 X25 Y25
;TYPE:SKIRT
G1 F3000 Z0.3
G1 F1500 E0
G1 F1800 X104.299 Y103.192 E0.03275
G1 X104.905 Y102.891 E0.06651
G1 X105.5 Y102.8 E0.09654
G1 X114.541 Y102.8 E0.54759
G1 X115.243 Y102.944 E0.58334
G1 X115.896 Y103.288 E0.62017
G1 X116.308 Y103.799 E0.65292
G1 X116.609 Y104.405 E0.68667
G1 X116.7 Y105 E0.7167
G1 X116.7 Y115.041 E1.21765
G1 X116.556 Y115.743 E1.2534
G1 X116.212 Y116.396 E1.29022
G1 X115.701 Y116.808 E1.32297
G1 X115.095 Y117.109 E1.35673
G1 X114.5 Y117.2 E1.38676
G1 X105.459 Y117.2 E1.83782
G1 X104.757 Y117.056 E1.87357
G1 X104.104 Y116.712 E1.91039
G1 X103.692 Y116.201 E1.94314
G1 X103.391 Y115.595 E1.9769
G1 X103.3 Y115 E2.00693
G1 X103.3 Y104.959 E2.50788
G1 X103.444 Y104.257 E2.54363
G1 X103.788 Y103.604 E2.58045
M205 X30 Y30
G0 X104.105 Y103.862
M205 X25 Y25
G1 X104.477 Y103.55 E2.60467
G1 X105.026 Y103.277 E2.63526
G1 X105.5 Y103.2 E2.65922
G1 X114.5 Y103.2 E3.10823
G1 X115.106 Y103.324 E3.13909
G1 X115.638 Y103.605 E3.16911
G1 X115.95 Y103.977 E3.19333
G1 X116.223 Y104.526 E3.22392
G1 X116.3 Y105 E3.24788
G1 X116.3 Y115 E3.74678
G1 X116.176 Y115.606 E3.77764
G1 X115.895 Y116.138 E3.80766
G1 X115.523 Y116.45 E3.83188
G1 X114.974 Y116.723 E3.86247
G1 X114.5 Y116.8 E3.88643
G1 X105.5 Y116.8 E4.33544
G1 X104.894 Y116.676 E4.3663
G1 X104.362 Y116.395 E4.39631
G1 X104.05 Y116.023 E4.42054
G1 X103.777 Y115.474 E4.45113
G1 X103.7 Y115 E4.47508
G1 X103.7 Y105 E4.97399
G1 X103.824 Y104.394 E5.00485
G1 X104.105 Y103.862 E5.03486
M205 X30 Y30
G0 X104.423 Y104.117
M205 X25 Y25
G1 X104.655 Y103.908 E5.05044
G1 X105.149 Y103.662 E5.07797
G1 X105.5 Y103.6 E5.09576
G1 X114.5 Y103.6 E5.54477
G1 X114.919 Y103.678 E5.56603
G1 X115.383 Y103.923 E5.59221
G1 X115.592 Y104.155 E5.60779
G1 X115.838 Y104.649 E5.63532
G1 X115.9 Y105 E5.6531
G1 X115.9 Y115 E6.152
G1 X115.822 Y115.419 E6.17327
G1 X115.577 Y115.883 E6.19945
G1 X115.345 Y116.092 E6.21502
G1 X114.851 Y116.338 E6.24256
G1 X114.5 Y116.4 E6.26034
G1 X105.5 Y116.4 E6.70935
G1 X105.081 Y116.322 E6.73061
G1 X104.617 Y116.077 E6.75679
G1 X104.408 Y115.845 E6.77237
G1 X104.162 Y115.351 E6.7999
G1 X104.1 Y115 E6.81769
G1 X104.1 Y105 E7.31659
G1 X104.178 Y104.581 E7.33785
G1 X104.423 Y104.117 E7.36403
M205 X30 Y30
G0 X104.845 Y104.26
M205 X25 Y25
G1 X105.227 Y104.054 E7.38568
G1 X105.5 Y104 E7.39957
G1 X114.5 Y104 E7.84858
G1 X114.838 Y104.07 E7.8658
G1 X115.101 Y104.207 E7.88059
G1 X115.24 Y104.345 E7.89036
G1 X115.446 Y104.727 E7.91202
G1 X115.5 Y105 E7.9259
G1 X115.5 Y115 E8.4248
G1 X115.43 Y115.338 E8.44202
G1 X115.293 Y115.601 E8.45682
G1 X115.155 Y115.74 E8.46659
G1 X114.773 Y115.946 E8.48824
G1 X114.5 Y116 E8.50213
G1 X105.5 Y116 E8.95114
G1 X105.162 Y115.93 E8.96836
G1 X104.899 Y115.793 E8.98315
G1 X104.76 Y115.655 E8.99293
G1 X104.554 Y115.273 E9.01458
G1 X104.5 Y115 E9.02846
G1 X104.5 Y105 E9.52736
G1 X104.57 Y104.662 E9.54459
G1 X104.707 Y104.399 E9.55938
G1 X104.845 Y104.26 E9.56915
M205 X30 Y30
G0 X105.339 Y104.881
M205 X25 Y25
G1 X105.5 Y104.8 E9.57814
G1 X114.5 Y104.8 E10.02716
G1 X114.619 Y104.839 E10.0334
G1 X114.7 Y105 E10.04239
G1 X114.7 Y115 E10.5413
G1 X114.661 Y115.119 E10.54754
G1 X114.5 Y115.2 E10.55654
G1 X105.5 Y115.2 E11.00555
G1 X105.381 Y115.161 E11.0118
G1 X105.3 Y115 E11.02079
G1 X105.3 Y105 E11.51969
G1 X105.339 Y104.881 E11.52594
M205 X30 Y30
G0 X105.05 Y104.604
M205 X25 Y25
G1 X105.32 Y104.443 E11.54162
G1 X105.5 Y104.4 E11.55085
G1 X114.5 Y104.4 E11.99986
G1 X114.744 Y104.459 E12.01239
G1 X114.896 Y104.55 E12.02123
G1 X115.057 Y104.82 E12.03691
G1 X115.1 Y105 E12.04614
G1 X115.1 Y115 E12.54505
G1 X115.041 Y115.244 E12.55757
G1 X114.95 Y115.396 E12.56641
G1 X114.68 Y115.557 E12.58209
G1 X114.5 Y115.6 E12.59132
G1 X105.5 Y115.6 E13.04034
G1 X105.256 Y115.541 E13.05286
G1 X105.104 Y115.45 E13.0617
G1 X104.943 Y115.18 E13.07738
G1 X104.9 Y115 E13.08661
G1 X104.9 Y105 E13.58552
G1 X104.959 Y104.756 E13.59804
G1 X105.05 Y104.604 E13.60688
M205 X30 Y30
G1 F1500 E9.60688
G1 F3000 Z1.3
;MESH:pin.stl
G0 F1800 X112.611 Y109.413 Z1.3
M205 X25 Y25
;TYPE:WALL-INNER
G1 F3000 Z0.3
G1 F1500 E13.60688
G1 F1800 X112.161 Y109.579 E13.63081
G1 X111.921 Y109.595 E13.64281
G1 X111.574 Y109.505 E13.66069
G1 X111.224 Y109.282 E13.6814
G1 X111.03 Y109.017 E13.69778
G1 X110.908 Y108.606 E13.71917
G1 X110.923 Y108.288 E13.73506
G1 X111.119 Y107.854 E13.75881
G1 X111.282 Y107.669 E13.77111
G1 X111.591 Y107.489 E13.78896
G1 X111.894 Y107.408 E13.8046
G1 X112.212 Y107.423 E13.82049
G1 X112.646 Y107.619 E13.84424
G1 X112.831 Y107.782 E13.85654
G1 X113.011 Y108.091 E13.87439
G1 X113.1 Y108.498 E13.89517
G1 X113.074 Y108.735 E13.90707
G1 X112.881 Y109.146 E13.92972
G1 X112.611 Y109.413 E13.94866
M205 X30 Y30
G1 F1500 E9.94866
G1 F3000 Z1.3
G0 F1800 X113.9 Y114.4 Z1.3
M205 X25 Y25
G1 F3000 Z0.3
G1 F1500 E13.94866
G1 F1800 X113.9 Y105.6 E14.3877
G1 X106.101 Y105.601 E14.77679
G1 X106.101 Y114.399 E15.21572
G1 X113.9 Y114.4 E15.60482
M205 X30 Y30
G0 X114.3 Y114.8
M205 X25 Y25
;TYPE:WALL-OUTER
G1 X114.3 Y105.2 E16.08376
G1 X105.701 Y105.201 E16.51277
G1 X105.701 Y114.799 E16.99162
G1 X114.3 Y114.8 E17.42062
M205 X30 Y30
G0 X114.3 Y114.6
G1 F1500 E13.42062
G1 F3000 Z1.3
G0 F1800 X111.975 Y109.199 Z1.3
M205 X25 Y25
G1 F3000 Z0.3
G1 F1500 E17.42062
G1 F1800 X111.77 Y109.157 E17.43106
G1 X111.507 Y109 E17.44634
G1 X111.388 Y108.839 E17.45633
G1 X111.302 Y108.537 E17.472
G1 X111.319 Y108.342 E17.48176
G1 X111.467 Y108.05 E17.4981
G1 X111.697 Y107.875 E17.51251
G1 X111.963 Y107.802 E17.52628
G1 X112.158 Y107.819 E17.53604
G1 X112.45 Y107.967 E17.55237
G1 X112.625 Y108.197 E17.56679
G1 X112.7 Y108.498 E17.58227
G1 X112.68 Y108.666 E17.59071
G1 X112.533 Y108.95 E17.60666
G1 X112.371 Y109.093 E17.61744
G1 X111.975 Y109.199 E17.6379
M205 X30 Y30
G0 X111.779 Y109.159
G1 F1500 E13.6379
G1 F3000 Z1.3
G0 F1800 X113.498 Y108.456 Z1.3
M205 X25 Y25
;TYPE:SKIN
G1 F3000 Z0.3
G1 F1500 E17.6379
G1 F1575.5 X113.485 Y108.804 E17.65775
M205 X30 Y30
G1 F1500 E13.65775
G1 F3000 Z1.3
G0 F1800 X111.402 Y109.848 Z1.3
M205 X25 Y25
G1 F3000 Z0.3
G1 F1500 E17.65775
G1 F1800 X111.855 Y109.969 E17.68114
G1 X112.251 Y109.95 E17.70092
G1 X112.793 Y109.743 E17.72986
G1 F1726.6 X113.203 Y109.352 E17.75933
G1 F1592.9 X113.485 Y108.804 E17.79407
G1 F1655.2 X113.52 Y109.38 E17.82538
G1 F1800 X113.52 Y114.019 E18.05682
G1 X106.482 Y114.018 E18.40795
G1 X106.482 Y105.981 E18.80892
G1 X113.52 Y105.98 E19.16005
G1 X113.52 Y107.986 E19.26013
G1 F1706.2 X113.498 Y108.456 E19.28489
G1 X113.36 Y107.941 E19.31295
G1 F1800 X113.109 Y107.525 E19.33719
G1 X112.815 Y107.277 E19.35638
G1 X112.319 Y107.06 E19.38339
G1 X111.825 Y107.033 E19.40807
G1 X111.493 Y107.12 E19.4252
G1 X111.025 Y107.391 E19.45218
G1 X110.774 Y107.691 E19.47169
G1 X110.547 Y108.216 E19.50023
G1 X110.534 Y108.675 E19.52314
G1 X110.705 Y109.213 E19.5513
G1 X110.954 Y109.552 E19.57229
G1 X111.402 Y109.848 E19.59908
M205 X30 Y30
G1 F1500 E15.59908
G1 F3000 Z1.3
G0 F1800 X113.319 Y106.531 Z1.3
M205 X25 Y25
G1 F3000 Z0.3
G1 F1500 E19.59908
G1 F1800 X112.968 Y106.18 E19.62384
M205 X30 Y30
G0 X112.403 Y106.18
M205 X25 Y25
G1 X113.319 Y107.096 E19.68847
M205 X30 Y30
G0 X112.638 Y106.981
M205 X25 Y25
G1 X111.837 Y106.18 E19.74498
M205 X30 Y30
G0 X111.271 Y106.18
M205 X25 Y25
G1 X111.928 Y106.837 E19.79134
M205 X30 Y30
G0 X111.449 Y106.923
M205 X25 Y25
G1 X110.706 Y106.18 E19.84376
M205 X30 Y30
G0 X110.14 Y106.18
M205 X25 Y25
G1 X111.079 Y107.119 E19.91001
M205 X30 Y30
G0 X110.775 Y107.381
M205 X25 Y25
G1 X109.574 Y106.18 E19.99475
M205 X30 Y30
G0 X109.008 Y106.18
M205 X25 Y25
G1 X110.544 Y107.716 E20.10312
M205 X30 Y30
G0 X110.373 Y108.11
M205 X25 Y25
G1 X108.443 Y106.18 E20.2393
M205 X30 Y30
G0 X107.877 Y106.18
M205 X25 Y25
G1 X110.338 Y108.641 E20.41293
G1 X110.408 Y108.711
M205 X30 Y30
G0 X110.83 Y108.627
G0 X111.164 Y109.337
G0 X110.784 Y109.653
M205 X25 Y25
G1 X107.311 Y106.18 E20.65797
M205 X30 Y30
G0 X106.746 Y106.18
M205 X25 Y25
G1 X113.32 Y112.754 E21.1218
M205 X30 Y30
G0 X113.32 Y113.32
M205 X25 Y25
G1 X106.681 Y106.681 E21.59022
M205 X30 Y30
G0 X106.681 Y107.246
M205 X25 Y25
G1 X113.251 Y113.817 E22.0538
M205 X30 Y30
G0 X112.685 Y113.817
M205 X25 Y25
G1 X106.681 Y107.812 E22.47745
M205 X30 Y30
G0 X106.681 Y108.378
M205 X25 Y25
G1 X112.12 Y113.817 E22.8612
M205 X30 Y30
G0 X111.554 Y113.817
M205 X25 Y25
G1 X106.681 Y108.943 E23.20506
M205 X30 Y30
G0 X106.681 Y109.509
M205 X25 Y25
G1 X110.988 Y113.817 E23.50897
M205 X30 Y30
G0 X110.423 Y113.817
M205 X25 Y25
G1 X106.681 Y110.076 E23.77296
M205 X30 Y30
G0 X106.681 Y110.641
M205 X25 Y25
G1 X109.857 Y113.817 E23.99704
M205 X30 Y30
G0 X109.291 Y113.817
M205 X25 Y25
G1 X106.681 Y111.207 E24.18119
M205 X30 Y30
G0 X106.681 Y111.773
M205 X25 Y25
G1 X108.726 Y113.817 E24.32544
M205 X30 Y30
G0 X108.16 Y113.817
M205 X25 Y25
G1 X106.681 Y112.338 E24.42979
M205 X30 Y30
G0 X106.681 Y112.904
M205 X25 Y25
G1 X107.594 Y113.817 E24.49421
M205 X30 Y30
G0 X107.029 Y113.817
M205 X25 Y25
G1 X106.681 Y113.47 E24.51873
M205 X30 Y30
G1 F1500 E20.51873
G1 F3000 Z1.3
G0 F1800 X110.851 Y109.719 Z1.3
M205 X25 Y25
G1 F3000 Z0.3
G1 F1500 E24.51873
G1 F1800 X113.32 Y112.188 E24.69293
M205 X30 Y30
G0 X113.32 Y111.623
M205 X25 Y25
G1 X111.861 Y110.164 E24.79587
M205 X30 Y30
G0 X112.378 Y110.115
M205 X25 Y25
G1 X113.32 Y111.057 E24.86233
M205 X30 Y30
G0 X113.32 Y110.491
M205 X25 Y25
G1 X112.787 Y109.959 E24.8999
M205 X30 Y30
G0 X113.117 Y109.723
M205 X25 Y25
G1 X113.32 Y109.926 E24.91423
M205 X30 Y30
G1 F1500 E20.91423
G1 F3000 Z1.3
;MESH:NONMESH
G0 F1800 X111.677 Y109.551 Z1.3
;TIME_ELAPSED:29.626360
;LAYER:1
M106 S255
;MESH:pin.stl
G0 F4500 X111.677 Y109.551 Z1.5
M205 X25 Y25
;TYPE:WALL-INNER
G1 F3000 Z0.5
G1 F1500 E24.91423
G1 F3054.2 X111.221 Y109.279 E24.93189
G1 X110.937 Y108.786 E24.95081
G1 X110.92 Y108.301 E24.96695
G1 X111.125 Y107.847 E24.98352
G1 X111.347 Y107.625 E24.99396
G1 X111.767 Y107.425 E25.00943
G1 X112.129 Y107.417 E25.02148
G1 X112.415 Y107.489 E25.03128
G1 X112.653 Y107.625 E25.0404
G1 X112.875 Y107.847 E25.05084
G1 X113.004 Y108.072 E25.05947
G1 X113.084 Y108.371 E25.06976
G1 X113.076 Y108.733 E25.08181
G1 X112.875 Y109.153 E25.09729
G1 X112.653 Y109.375 E25.10774
G1 X112.428 Y109.504 E25.11636
G1 X112.129 Y109.583 E25.12665
G1 X111.677 Y109.551 E25.14172
M205 X30 Y30
G0 F4500 X111.523 Y109.819
G0 X113.63 Y114.13
G0 X113.9 Y114.4
M205 X25 Y25
G1 F3054.2 X113.9 Y105.6 E25.43441
G1 X106.101 Y105.601 E25.69381
G1 X106.1 Y114.4 E25.98646
G1 X113.9 Y114.4 E26.24589
M205 X30 Y30
G0 F4500 X114.3 Y114.8
M205 X25 Y25
;TYPE:WALL-OUTER
G1 F3054.2 X114.3 Y105.2 E26.56519
G1 X105.701 Y105.201 E26.85119
G1 X105.7 Y114.8 E27.17046
G1 X114.3 Y114.8 E27.45649
M205 X30 Y30
G0 F4500 X114.3 Y114.6
G0 X113.63 Y114.13
G0 X112.576 Y109.763
G0 X112.229 Y109.157
M205 X25 Y25
G1 F3054.2 X111.845 Y109.182 E27.46929
G1 X111.504 Y108.996 E27.48221
G1 X111.323 Y108.682 E27.49427
G1 X111.318 Y108.347 E27.50541
G1 X111.472 Y108.046 E27.51665
G1 X111.836 Y107.819 E27.53092
G1 X112.229 Y107.843 E27.54402
G1 X112.528 Y108.046 E27.55604
G1 X112.684 Y108.371 E27.56803
G1 X112.681 Y108.664 E27.57777
G1 X112.528 Y108.954 E27.58868
G1 X112.229 Y109.157 E27.6007
M205 X30 Y30
G0 F4500 X112.029 Y109.17
G0 X112.029 Y109.883
G0 X112.352 Y109.821
G0 X112.968 Y109.468
G0 X113.253 Y108.97
G0 X113.488 Y108.311
M205 X25 Y25
;TYPE:SKIN
G1 F2621.6 X113.486 Y108.801 E27.61969
M205 X30 Y30
G0 F4500 X112.968 Y109.468
G0 X112.414 Y109.785
G0 X111.552 Y109.917
M205 X25 Y25
G1 F3054.2 X112.114 Y109.962 E27.63844
G1 X112.619 Y109.834 E27.65577
G1 X112.882 Y109.675 E27.66599
G1 F2929.7 X113.197 Y109.358 E27.68148
G1 F2708.8 X113.486 Y108.801 E27.70502
G1 F2814.9 X113.52 Y109.392 E27.72638
G1 F3054.2 X113.52 Y114.02 E27.88031
G1 X106.481 Y114.019 E28.11442
G1 X106.482 Y105.982 E28.38174
G1 X113.52 Y105.98 E28.61582
G1 X113.52 Y107.908 E28.67995
G1 F2827.9 X113.488 Y108.311 E28.69447
G1 X113.334 Y107.883 E28.71081
G1 F3054.2 X113.176 Y107.617 E28.7211
G1 X112.839 Y107.293 E28.73665
G1 X112.552 Y107.138 E28.74749
G1 X112.179 Y107.042 E28.76031
G1 X111.686 Y107.049 E28.7767
G1 X111.177 Y107.282 E28.79532
G1 X110.824 Y107.619 E28.81155
G1 X110.652 Y107.914 E28.82291
G1 X110.544 Y108.258 E28.8349
G1 X110.565 Y108.87 E28.85527
G1 X110.806 Y109.361 E28.87346
G1 X110.95 Y109.546 E28.88126
G1 X111.552 Y109.917 E28.90478
M205 X30 Y30
G0 F4500 X113.02 Y113.819
M205 X25 Y25
G1 F3054.2 X113.319 Y113.52 E28.91884
M205 X30 Y30
G0 F4500 X113.318 Y112.955
M205 X25 Y25
G1 F3054.2 X112.454 Y113.819 E28.95948
M205 X30 Y30
G0 F4500 X111.889 Y113.819
M205 X25 Y25
G1 F3054.2 X113.318 Y112.389 E29.02672
M205 X30 Y30
G0 F4500 X113.318 Y111.824
M205 X25 Y25
G1 F3054.2 X111.323 Y113.819 E29.12056
M205 X30 Y30
G0 F4500 X110.757 Y113.819
M205 X25 Y25
G1 F3054.2 X113.318 Y111.259 E29.241
M205 X30 Y30
G0 F4500 X113.317 Y110.694
M205 X25 Y25
G1 F3054.2 X110.191 Y113.819 E29.38801
M205 X30 Y30
G0 F4500 X109.626 Y113.819
M205 X25 Y25
G1 F3054.2 X113.316 Y110.129 E29.56158
M205 X30 Y30
G0 F4500 X113.316 Y109.563
M205 X25 Y25
G1 F3054.2 X109.06 Y113.819 E29.76177
M205 X30 Y30
G0 F4500 X108.494 Y113.819
M205 X25 Y25
G1 F3054.2 X112.169 Y110.144 E29.93463
M205 X30 Y30
G0 F4500 X111.625 Y110.123
M205 X25 Y25
G1 F3054.2 X107.929 Y113.819 E30.10848
M205 X30 Y30
G0 F4500 X107.363 Y113.819
M205 X25 Y25
G1 F3054.2 X111.228 Y109.954 E30.29028
M205 X30 Y30
G0 F4500 X110.876 Y109.74
M205 X25 Y25
G1 F3054.2 X106.797 Y113.819 E30.48214
M205 X30 Y30
G0 F4500 X106.681 Y113.37
M205 X25 Y25
G1 F3054.2 X110.619 Y109.431 E30.6674
M205 X30 Y30
G0 F4500 X110.426 Y109.059
M205 X25 Y25
G1 F3054.2 X106.681 Y112.804 E30.84355
M205 X30 Y30
G0 F4500 X106.681 Y112.239
M205 X25 Y25
G1 F3054.2 X110.355 Y108.564 E31.01639
M205 X30 Y30
G0 F4500 X110.443 Y107.911
M205 X25 Y25
G1 F3054.2 X106.681 Y111.673 E31.19334
M205 X30 Y30
G0 F4500 X106.681 Y111.107
M205 X25 Y25
G1 F3054.2 X111.609 Y106.179 E31.42514
M205 X30 Y30
G0 F4500 X112.174 Y106.179
M205 X25 Y25
G1 F3054.2 X111.39 Y106.964 E31.46204
M205 X30 Y30
G0 F4500 X112.07 Y106.849
M205 X25 Y25
G1 F3054.2 X112.74 Y106.179 E31.49355
M205 X30 Y30
G0 F4500 X113.306 Y106.179
M205 X25 Y25
G1 F3054.2 X112.545 Y106.94 E31.52935
M205 X30 Y30
G0 F4500 X112.926 Y107.125
M205 X25 Y25
G1 F3054.2 X113.318 Y106.733 E31.54779
M205 X30 Y30
G0 F4500 X113.317 Y107.299
M205 X25 Y25
G1 F3054.2 X113.229 Y107.388 E31.55195
M205 X30 Y30
G0 F4500 X111.042 Y106.18
M205 X25 Y25
G1 F3054.2 X106.681 Y110.542 E31.7571
M205 X30 Y30
G0 F4500 X106.681 Y109.976
M205 X25 Y25
G1 F3054.2 X110.476 Y106.18 E31.93563
M205 X30 Y30
G0 F4500 X109.911 Y106.18
M205 X25 Y25
G1 F3054.2 X106.681 Y109.41 E32.08756
M205 X30 Y30
G0 F4500 X106.681 Y108.844
M205 X25 Y25
G1 F3054.2 X109.345 Y106.18 E32.21286
M205 X30 Y30
G0 F4500 X108.779 Y106.181
M205 X25 Y25
G1 F3054.2 X106.681 Y108.279 E32.31155
M205 X30 Y30
G0 F4500 X106.681 Y107.713
M205 X25 Y25
G1 F3054.2 X108.213 Y106.181 E32.38361
M205 X30 Y30
G0 F4500 X107.647 Y106.181
M205 X25 Y25
G1 F3054.2 X106.681 Y107.147 E32.42905
M205 X30 Y30
G0 F4500 X106.681 Y106.582
M205 X25 Y25
G1 F3054.2 X107.082 Y106.181 E32.44791
M205 X30 Y30
