;FLAVOR:Marlin
;TIME:3719
;Filament used: 6.56128m
;Layer height: 0.2
;MINX:57.441
;MINY:79.266
;MINZ:0.3
;MAXX:162.559
;MAXY:140.734
;MAXZ:46.1
;Generated with Cura_SteamEngine 5.4.0
M140 S55
M105
M190 S55
M104 S210
M105
M109 S210
M82 ;absolute extrusion mode
START_PRINT
G92 E0
G92 E0
G1 F1500 E-4
;LAYER_COUNT:230
;LAYER:0
M107
M204 S8000
M205 X30 Y30
G1 F3000 Z1.3
G0 F1800 X58.982 Y95.339 Z1.3
M205 X25 Y25
;TYPE:SKIRT
G1 F3000 Z0.3
G1 F1500 E0
G1 F1800 X59.541 Y95.13 E0.02977
G1 X60.124 Y95.043 E0.05918
G1 X94.174 Y95.034 E1.75794
G1 X93.822 Y94.746 E1.78063
G1 X93.384 Y94.148 E1.81761
G1 X93.154 Y93.533 E1.85037
G1 X93.059 Y92.834 E1.88557
G1 X93.074 Y81.853 E2.43341
G1 X93.199 Y81.217 E2.46575
G1 X93.506 Y80.527 E2.50343
G1 X94.043 Y79.934 E2.54334
G1 X94.632 Y79.548 E2.57847
G1 X95.272 Y79.334 E2.61214
G1 X95.861 Y79.266 E2.64172
G1 X107.086 Y79.283 E3.20174
G1 X107.613 Y79.38 E3.22847
G1 X108.227 Y79.624 E3.26144
G1 X108.929 Y80.163 E3.30559
G1 X109.338 Y80.765 E3.3419
G1 X109.581 Y81.412 E3.37638
G1 X109.643 Y81.825 E3.39722
G1 X109.657 Y92.859 E3.94771
G1 X109.554 Y93.561 E3.9831
G1 X109.345 Y94.11 E4.01241
G1 X108.969 Y94.68 E4.04648
G1 X108.489 Y95.076 E4.07752
G1 X108.861 Y95.034 E4.0962
G1 X140.985 Y95.044 E5.69887
G1 X141.7 Y95.19 E5.73528
G1 X142.31 Y95.502 E5.76946
G1 X142.828 Y95.932 E5.80305
G1 X143.253 Y96.536 E5.8399
G1 X143.496 Y97.187 E5.87456
G1 X143.557 Y97.597 E5.89524
G1 X143.573 Y108.534 E6.44089
G1 X160.759 Y108.534 E7.29831
G1 X161.365 Y108.658 E7.32917
G1 X161.897 Y108.939 E7.35918
G1 X162.209 Y109.311 E7.38341
G1 X162.482 Y109.86 E7.414
G1 X162.559 Y110.334 E7.43795
G1 X162.552 Y138.147 E8.82555
G1 X162.395 Y138.874 E8.86266
G1 X162.077 Y139.505 E8.89791
G1 X161.707 Y139.932 E8.9261
G1 X161.19 Y140.34 E8.95895
G1 X160.467 Y140.65 E8.9982
G1 X159.859 Y140.728 E9.02878
G1 X117.159 Y140.734 E11.15909
G1 X116.553 Y140.61 E11.18995
G1 X116.021 Y140.329 E11.21997
G1 X115.709 Y139.957 E11.24419
G1 X115.436 Y139.408 E11.27478
G1 X115.359 Y138.934 E11.29874
G1 X115.359 Y130.733 E11.70789
G1 X108.709 Y130.723 E12.03966
G1 X108.043 Y130.607 E12.07339
G1 X107.449 Y130.344 E12.1058
G1 X106.85 Y129.888 E12.14335
G1 X106.384 Y129.244 E12.18301
G1 X106.131 Y128.557 E12.21954
G1 X106.059 Y127.93 E12.25103
G1 X106.072 Y97.677 E13.76035
G1 X106.186 Y96.967 E13.79623
G1 X106.557 Y96.238 E13.83704
G1 X107.01 Y95.74 E13.87062
G1 X107.209 Y95.594 E13.88294
G1 X106.857 Y95.634 E13.90061
G1 X96.159 Y95.622 E14.43434
G1 X96.309 Y95.811 E14.44638
G1 X96.582 Y96.36 E14.47697
G1 X96.659 Y96.834 E14.50092
G1 X96.659 Y109.032 E15.10948
G1 X96.535 Y109.638 E15.14034
G1 X96.254 Y110.17 E15.17036
G1 X95.882 Y110.482 E15.19458
G1 X95.333 Y110.755 E15.22517
G1 X94.859 Y110.832 E15.24913
G1 X91.859 Y110.832 E15.3988
G1 X91.253 Y110.708 E15.42966
G1 X90.721 Y110.427 E15.45968
G1 X90.409 Y110.055 E15.4839
G1 X90.136 Y109.506 E15.51449
G1 X90.059 Y109.032 E15.53845
G1 X90.059 Y102.848 E15.84697
G1 X89.979 Y102.709 E15.85497
G1 X89.849 Y102.634 E15.86246
G1 X59.241 Y102.634 E17.3895
G1 X58.635 Y102.51 E17.42036
G1 X58.103 Y102.229 E17.45037
G1 X57.791 Y101.857 E17.4746
G1 X57.518 Y101.308 E17.50519
G1 X57.441 Y100.833 E17.52919
G1 X57.453 Y97.681 E17.68645
G1 X57.569 Y96.966 E17.72259
G1 X57.936 Y96.247 E17.76286
G1 X58.408 Y95.714 E17.79838
G1 X58.982 Y95.339 E17.83259
M205 X30 Y30
G0 X59.164 Y95.698
M205 X25 Y25
G1 X59.641 Y95.52 E17.85799
G1 X60.183 Y95.439 E17.88533
G1 X94.859 Y95.434 E19.61532
G1 X95.278 Y95.512 E19.63658
G1 X95.742 Y95.757 E19.66276
G1 X95.951 Y95.989 E19.67834
G1 X96.197 Y96.483 E19.70587
G1 X96.259 Y96.834 E19.72365
G1 X96.259 Y109.032 E20.33221
G1 X96.181 Y109.451 E20.35348
G1 X95.936 Y109.915 E20.37966
G1 X95.704 Y110.124 E20.39523
G1 X95.21 Y110.37 E20.42277
G1 X94.859 Y110.432 E20.44055
G1 X91.859 Y110.432 E20.59022
G1 X91.44 Y110.354 E20.61148
G1 X90.976 Y110.109 E20.63766
G1 X90.767 Y109.877 E20.65324
G1 X90.521 Y109.383 E20.68077
G1 X90.459 Y109.032 E20.69855
G1 X90.459 Y102.915 E21.00373
G1 X90.428 Y102.689 E21.01511
G1 X90.272 Y102.416 E21.0308
G1 X90.015 Y102.267 E21.04562
G1 X89.759 Y102.234 E21.0585
G1 X59.241 Y102.234 E22.58105
G1 X58.822 Y102.156 E22.60231
G1 X58.358 Y101.911 E22.62849
G1 X58.149 Y101.679 E22.64407
G1 X57.903 Y101.185 E22.6716
G1 X57.841 Y100.834 E22.68938
G1 X57.848 Y97.745 E22.84349
G1 X57.954 Y97.091 E22.87655
G1 X58.268 Y96.475 E22.91104
G1 X58.672 Y96.02 E22.9414
G1 X59.164 Y95.698 E22.97074
M205 X30 Y30
G0 X59.312 Y96.07
M205 X25 Y25
G1 X59.7 Y95.916 E22.99156
G1 X60.242 Y95.835 E23.0189
G1 X94.859 Y95.834 E24.74595
G1 X95.197 Y95.904 E24.76317
G1 X95.46 Y96.041 E24.77797
G1 X95.599 Y96.179 E24.78774
G1 X95.805 Y96.561 E24.80939
G1 X95.859 Y96.834 E24.82328
G1 X95.859 Y109.032 E25.43184
G1 X95.789 Y109.37 E25.44906
G1 X95.652 Y109.633 E25.46385
G1 X95.514 Y109.772 E25.47362
G1 X95.132 Y109.978 E25.49528
G1 X94.859 Y110.032 E25.50916
G1 X91.859 Y110.032 E25.65883
G1 X91.521 Y109.962 E25.67605
G1 X91.258 Y109.825 E25.69085
G1 X91.119 Y109.687 E25.70062
G1 X90.913 Y109.305 E25.72227
G1 X90.859 Y109.032 E25.73615
G1 X90.859 Y102.891 E26.04253
G1 X90.817 Y102.581 E26.05814
G1 X90.717 Y102.339 E26.0712
G1 X90.556 Y102.13 E26.08436
G1 X90.355 Y101.976 E26.097
G1 X90.118 Y101.877 E26.10981
G1 X89.788 Y101.834 E26.12641
G1 X59.241 Y101.834 E27.65041
G1 X58.903 Y101.764 E27.66763
G1 X58.64 Y101.627 E27.68242
G1 X58.501 Y101.489 E27.6922
G1 X58.295 Y101.107 E27.71385
G1 X58.241 Y100.834 E27.72773
G1 X58.243 Y97.809 E27.87865
G1 X58.339 Y97.217 E27.90857
G1 X58.601 Y96.702 E27.9374
G1 X58.936 Y96.326 E27.96252
G1 X59.312 Y96.07 E27.98522
M205 X30 Y30
G0 X59.62 Y96.809
M205 X25 Y25
G1 X59.906 Y96.684 E28.00079
G1 X60.242 Y96.635 E28.01773
G1 X94.859 Y96.634 E29.74478
G1 X94.978 Y96.673 E29.75103
G1 X95.059 Y96.834 E29.76002
G1 X95.059 Y109.032 E30.36858
G1 X95.02 Y109.151 E30.37483
G1 X94.859 Y109.232 E30.38382
G1 X91.859 Y109.232 E30.53349
G1 X91.74 Y109.193 E30.53974
G1 X91.659 Y109.032 E30.54873
G1 X91.659 Y102.844 E30.85745
G1 X91.595 Y102.367 E30.88146
G1 X91.417 Y101.936 E30.90472
G1 X91.128 Y101.56 E30.92838
G1 X90.758 Y101.278 E30.95159
G1 X90.322 Y101.097 E30.97514
G1 X89.846 Y101.034 E30.9991
G1 X59.241 Y101.034 E32.52599
G1 X59.122 Y100.995 E32.53224
G1 X59.041 Y100.834 E32.54123
G1 X59.043 Y97.809 E32.69215
G1 X59.091 Y97.502 E32.70765
G1 X59.218 Y97.211 E32.72349
G1 X59.413 Y96.968 E32.73903
G1 X59.62 Y96.809 E32.75206
M205 X30 Y30
G0 X59.46 Y96.442
M205 X25 Y25
G1 X59.169 Y96.651 E32.76993
G1 X58.906 Y96.961 E32.79021
G1 X58.724 Y97.342 E32.81128
G1 X58.643 Y97.809 E32.83492
G1 X58.641 Y100.834 E32.98584
G1 X58.684 Y101.014 E32.99507
G1 X58.845 Y101.284 E33.01076
G1 X58.997 Y101.375 E33.0196
G1 X59.241 Y101.434 E33.03212
G1 X89.817 Y101.434 E34.55756
G1 X90.221 Y101.487 E34.57789
G1 X90.556 Y101.627 E34.59601
G1 X90.842 Y101.845 E34.61395
G1 X91.067 Y102.137 E34.63234
G1 X91.206 Y102.475 E34.65057
G1 X91.259 Y102.867 E34.67031
G1 X91.259 Y109.032 E34.97788
G1 X91.302 Y109.212 E34.98711
G1 X91.463 Y109.482 E35.0028
G1 X91.615 Y109.573 E35.01163
G1 X91.859 Y109.632 E35.02416
G1 X94.859 Y109.632 E35.17383
G1 X95.039 Y109.589 E35.18306
G1 X95.309 Y109.428 E35.19874
G1 X95.4 Y109.276 E35.20758
G1 X95.459 Y109.032 E35.22011
G1 X95.459 Y96.834 E35.82867
G1 X95.416 Y96.654 E35.8379
G1 X95.255 Y96.384 E35.85358
G1 X95.103 Y96.293 E35.86242
G1 X94.859 Y96.234 E35.87495
G1 X60.242 Y96.235 E37.602
G1 X59.848 Y96.288 E37.62183
G1 X59.46 Y96.442 E37.64266
M205 X30 Y30
G1 F1500 E33.64266
G1 F3000 Z1.3
G0 F1800 X93.859 Y92.835 Z1.3
M205 X25 Y25
G1 F3000 Z0.3
G1 F1500 E37.64266
G1 F1800 X93.868 Y81.959 E38.18526
G1 X93.947 Y81.505 E38.20825
G1 X94.185 Y80.97 E38.23747
G1 X94.567 Y80.548 E38.26586
G1 X94.988 Y80.272 E38.29098
G1 X95.409 Y80.124 E38.31324
G1 X95.861 Y80.066 E38.33598
G1 X106.954 Y80.073 E38.88941
G1 X107.399 Y80.147 E38.91192
G1 X107.831 Y80.328 E38.93528
G1 X108.338 Y80.717 E38.96717
G1 X108.621 Y81.134 E38.99231
G1 X108.801 Y81.614 E39.01788
G1 X108.851 Y81.945 E39.03459
G1 X108.857 Y92.859 E39.57909
G1 X108.77 Y93.394 E39.60613
G1 X108.616 Y93.778 E39.62677
G1 X108.337 Y94.184 E39.65135
G1 X107.778 Y94.613 E39.6865
G1 X107.308 Y94.776 E39.71132
G1 X106.857 Y94.834 E39.73401
G1 X95.764 Y94.827 E40.28744
G1 X95.317 Y94.753 E40.31004
G1 X94.896 Y94.579 E40.33277
G1 X94.433 Y94.226 E40.36182
G1 X94.096 Y93.766 E40.39027
G1 X93.94 Y93.373 E40.41136
G1 X93.859 Y92.835 E40.4385
M205 X30 Y30
G1 F1500 E36.4385
G1 F3000 Z1.3
G0 F1800 X95.03 Y81.2 Z1.3
M205 X25 Y25
G1 F3000 Z0.3
G1 F1500 E40.4385
G1 F1800 X95.283 Y81.015 E40.45414
G1 X95.521 Y80.916 E40.467
G1 X95.861 Y80.866 E40.48415
G1 X106.897 Y80.869 E41.03473
G1 X107.196 Y80.916 E41.04983
G1 X107.435 Y81.015 E41.06274
G1 X107.725 Y81.237 E41.08096
G1 X107.882 Y81.442 E41.09384
G1 X108.009 Y81.734 E41.10973
G1 X108.059 Y82.065 E41.12643
G1 X108.057 Y92.859 E41.66495
G1 X108.009 Y93.166 E41.68045
G1 X107.882 Y93.458 E41.69633
G1 X107.725 Y93.663 E41.70922
G1 X107.435 Y93.885 E41.72744
G1 X107.196 Y93.984 E41.74034
G1 X106.857 Y94.034 E41.75744
G1 X95.821 Y94.031 E42.30803
G1 X95.521 Y93.984 E42.32318
G1 X95.283 Y93.885 E42.33604
G1 X94.992 Y93.663 E42.3543
G1 X94.835 Y93.458 E42.36718
G1 X94.708 Y93.166 E42.38307
G1 X94.659 Y92.835 E42.39976
G1 X94.662 Y82.028 E42.93892
G1 X94.708 Y81.734 E42.95377
G1 X94.835 Y81.442 E42.96966
G1 X95.03 Y81.2 E42.98516
M205 X30 Y30
G0 X94.524 Y81.191
M205 X25 Y25
G1 X94.794 Y80.877 E43.00582
G1 X95.129 Y80.646 E43.02612
G1 X95.463 Y80.52 E43.04393
G1 X95.861 Y80.466 E43.06397
G1 X106.897 Y80.469 E43.61456
G1 X107.258 Y80.521 E43.63276
G1 X107.588 Y80.645 E43.65034
G1 X108.043 Y80.994 E43.67895
G1 X108.249 Y81.282 E43.69662
G1 X108.405 Y81.674 E43.71767
G1 X108.455 Y82.005 E43.73437
G1 X108.457 Y92.859 E44.27588
G1 X108.376 Y93.326 E44.29952
G1 X108.249 Y93.618 E44.31541
G1 X108.043 Y93.906 E44.33307
G1 X107.588 Y94.255 E44.36168
G1 X107.254 Y94.38 E44.37948
G1 X106.857 Y94.434 E44.39946
G1 X95.821 Y94.431 E44.95005
G1 X95.459 Y94.379 E44.9683
G1 X95.129 Y94.254 E44.9859
G1 X94.749 Y93.981 E45.00925
G1 X94.468 Y93.618 E45.03215
G1 X94.312 Y93.225 E45.05324
G1 X94.259 Y92.835 E45.07288
G1 X94.262 Y82.028 E45.61204
G1 X94.341 Y81.574 E45.63503
G1 X94.524 Y81.191 E45.65621
M205 X30 Y30
G1 F1500 E41.65621
G1 F3000 Z1.3
G0 F1800 X93.459 Y92.835 Z1.3
M205 X25 Y25
G1 F3000 Z0.3
G1 F1500 E45.65621
G1 F1800 X93.474 Y81.89 E46.20226
G1 X93.582 Y81.342 E46.23013
G1 X93.846 Y80.748 E46.26256
G1 X94.305 Y80.241 E46.29668
G1 X94.81 Y79.91 E46.3268
G1 X95.358 Y79.727 E46.35562
G1 X95.861 Y79.666 E46.3809
G1 X107.02 Y79.678 E46.93763
G1 X107.465 Y79.752 E46.96013
G1 X108.028 Y79.976 E46.99036
G1 X108.634 Y80.441 E47.02847
G1 X108.979 Y80.949 E47.05911
G1 X109.191 Y81.514 E47.08922
G1 X109.247 Y81.885 E47.10793
G1 X109.257 Y92.859 E47.65543
G1 X109.165 Y93.458 E47.68566
G1 X108.987 Y93.927 E47.71069
G1 X108.635 Y94.46 E47.74256
G1 X107.968 Y94.972 E47.78451
G1 X107.359 Y95.173 E47.8165
G1 X106.857 Y95.234 E47.84173
G1 X95.699 Y95.222 E48.39841
G1 X95.164 Y95.123 E48.42555
G1 X94.653 Y94.897 E48.45343
G1 X94.145 Y94.51 E48.48529
G1 X93.74 Y93.957 E48.51949
G1 X93.544 Y93.433 E48.5474
G1 X93.459 Y92.835 E48.57753
M205 X30 Y30
G1 F1500 E44.57753
G1 F3000 Z1.3
G0 F1800 X106.956 Y97.217 Z1.3
M205 X25 Y25
G1 F3000 Z0.3
G1 F1500 E48.57753
G1 F1800 X107.221 Y96.698 E48.6066
G1 X107.567 Y96.316 E48.63232
G1 X107.988 Y96.04 E48.65743
G1 X108.409 Y95.892 E48.6797
G1 X108.861 Y95.834 E48.70243
G1 X140.903 Y95.844 E50.30101
G1 X141.433 Y95.952 E50.328
G1 X141.833 Y96.146 E50.35018
G1 X142.236 Y96.48 E50.37629
G1 X142.537 Y96.908 E50.4024
G1 X142.716 Y97.387 E50.42791
G1 X142.765 Y97.715 E50.44445
G1 X142.773 Y109.334 E51.02413
G1 X160.759 Y109.334 E51.92145
G1 X161.097 Y109.404 E51.93867
G1 X161.36 Y109.541 E51.95347
G1 X161.499 Y109.679 E51.96324
G1 X161.705 Y110.061 E51.98489
G1 X161.759 Y110.334 E51.99878
G1 X161.752 Y138.063 E53.38218
G1 X161.635 Y138.606 E53.4099
G1 X161.408 Y139.055 E53.435
G1 X161.152 Y139.361 E53.4549
G1 X160.782 Y139.643 E53.47811
G1 X160.253 Y139.87 E53.50683
G1 X159.757 Y139.934 E53.53178
G1 X117.159 Y139.934 E55.657
G1 X116.821 Y139.864 E55.67422
G1 X116.558 Y139.727 E55.68902
G1 X116.419 Y139.589 E55.69879
G1 X116.213 Y139.207 E55.72044
G1 X116.159 Y138.934 E55.73433
G1 X116.159 Y129.934 E56.18334
G1 X108.775 Y129.928 E56.55173
G1 X108.315 Y129.852 E56.57499
G1 X107.895 Y129.678 E56.59767
G1 X107.431 Y129.324 E56.62679
G1 X107.094 Y128.86 E56.6554
G1 X106.915 Y128.373 E56.68128
G1 X106.859 Y127.93 E56.70356
G1 X106.862 Y97.803 E58.2066
G1 X106.956 Y97.217 E58.23621
M205 X30 Y30
G1 F1500 E54.23621
G1 F3000 Z1.3
G0 F1800 X108.03 Y96.968 Z1.3
M205 X25 Y25
G1 F3000 Z0.3
G1 F1500 E58.23621
G1 F1800 X108.283 Y96.783 E58.25185
G1 X108.521 Y96.684 E58.26471
G1 X108.861 Y96.634 E58.28185
G1 X140.773 Y96.634 E59.87395
G1 X141.113 Y96.685 E59.8911
G1 X141.35 Y96.784 E59.90392
G1 X141.603 Y96.969 E59.91955
G1 X141.798 Y97.213 E59.93514
G1 X141.924 Y97.505 E59.951
G1 X141.973 Y97.833 E59.96755
G1 X141.973 Y110.134 E60.58125
G1 X160.759 Y110.134 E61.51848
G1 X160.878 Y110.173 E61.52473
G1 X160.959 Y110.334 E61.53372
G1 X160.957 Y137.962 E62.91209
G1 X160.907 Y138.273 E62.9278
G1 X160.784 Y138.555 E62.94315
G1 X160.587 Y138.801 E62.95888
G1 X160.381 Y138.959 E62.97183
G1 X160.088 Y139.085 E62.98774
G1 X159.757 Y139.134 E63.00444
G1 X117.159 Y139.134 E65.12966
G1 X117.04 Y139.095 E65.13591
G1 X116.959 Y138.934 E65.1449
G1 X116.959 Y129.134 E65.63382
G1 X108.832 Y129.132 E66.03928
G1 X108.519 Y129.083 E66.05508
G1 X108.282 Y128.984 E66.0679
G1 X107.991 Y128.762 E66.08616
G1 X107.833 Y128.556 E66.09911
G1 X107.707 Y128.263 E66.11502
G1 X107.659 Y127.93 E66.13181
G1 X107.662 Y97.803 E67.63485
G1 X107.708 Y97.502 E67.65004
G1 X107.835 Y97.21 E67.66593
G1 X108.03 Y96.968 E67.68143
M205 X30 Y30
G0 X107.794 Y96.645
M205 X25 Y25
G1 X107.524 Y96.959 E67.70209
G1 X107.341 Y97.342 E67.72327
G1 X107.262 Y97.803 E67.74661
G1 X107.259 Y127.93 E69.24965
G1 X107.311 Y128.32 E69.26928
G1 X107.466 Y128.714 E69.2904
G1 X107.748 Y129.08 E69.31345
G1 X108.128 Y129.353 E69.3368
G1 X108.457 Y129.478 E69.35435
G1 X108.832 Y129.532 E69.37326
G1 X116.559 Y129.534 E69.75876
G1 X116.559 Y138.934 E70.22773
G1 X116.602 Y139.114 E70.23696
G1 X116.763 Y139.384 E70.25264
G1 X116.915 Y139.475 E70.26148
G1 X117.159 Y139.534 E70.274
G1 X159.757 Y139.534 E72.39923
G1 X160.147 Y139.481 E72.41886
G1 X160.624 Y139.276 E72.44477
G1 X160.899 Y139.051 E72.46249
G1 X161.096 Y138.805 E72.47822
G1 X161.274 Y138.433 E72.49879
G1 X161.352 Y138.025 E72.51951
G1 X161.359 Y110.334 E73.90102
G1 X161.316 Y110.154 E73.91026
G1 X161.155 Y109.884 E73.92594
G1 X161.003 Y109.793 E73.93478
G1 X160.759 Y109.734 E73.9473
G1 X142.373 Y109.734 E74.86458
G1 X142.369 Y97.774 E75.46127
G1 X142.32 Y97.446 E75.47782
G1 X142.165 Y97.055 E75.4988
G1 X141.915 Y96.719 E75.51969
G1 X141.586 Y96.461 E75.54055
G1 X141.267 Y96.316 E75.55804
G1 X140.832 Y96.238 E75.58008
G1 X108.861 Y96.234 E77.17512
G1 X108.463 Y96.288 E77.19516
G1 X108.129 Y96.414 E77.21297
G1 X107.794 Y96.645 E77.23327
M205 X30 Y30
G1 F1500 E73.23327
G1 F3000 Z1.3
G0 F1800 X106.571 Y97.092 Z1.3
M205 X25 Y25
G1 F3000 Z0.3
G1 F1500 E77.23327
G1 F1800 X106.889 Y96.468 E77.26821
G1 X107.306 Y96.009 E77.29915
G1 X107.81 Y95.678 E77.32923
G1 X108.358 Y95.495 E77.35806
G1 X108.861 Y95.434 E77.38334
G1 X140.944 Y95.444 E78.98396
G1 X141.567 Y95.571 E79.01569
G1 X142.088 Y95.838 E79.04489
G1 X142.532 Y96.206 E79.07366
