;FLAVOR:Marlin
;TIME:3235
;Filament used: 5.83126m
;Layer height: 0.2
;MINX:79.9
;MINY:68.203
;MINZ:0.3
;MAXX:140
;MAXY:152.276
;MAXZ:47.1
;Generated with Cura_SteamEngine 5.4.0
M140 S55
M105
M190 S55
M104 S210
M105
M109 S210
M82 ;absolute extrusion mode
START_PRINT
G92 E0
G92 E0
G1 F1800 E-7
;LAYER_COUNT:235
;LAYER:0
M107
M204 S8000
M205 X30 Y30
G1 F3000 Z1.3
G0 F1800 X83.646 Y69.612 Z1.3
M205 X25 Y25
;TYPE:SKIRT
G1 F3000 Z0.3
G1 F1800 E0
G1 X83.982 Y69.234 E0.02523
G1 X84.472 Y68.835 E0.05676
G1 X84.966 Y68.554 E0.08511
G1 X85.498 Y68.354 E0.11347
G1 X86.044 Y68.24 E0.14129
G1 X86.484 Y68.205 E0.16332
G1 X88.828 Y68.203 E0.28026
G1 X89.531 Y68.213 E0.31533
G1 X90.128 Y68.273 E0.34527
G1 X90.681 Y68.421 E0.37383
G1 X91.239 Y68.672 E0.40435
G1 X94.025 Y70.233 E0.56368
G1 X96.424 Y71.484 E0.69866
G1 X98.895 Y72.685 E0.83573
G1 X101.368 Y73.803 E0.97113
G1 X103.898 Y74.861 E1.10795
G1 X106.438 Y75.839 E1.24374
G1 X109.016 Y76.747 E1.3801
G1 X111.579 Y77.571 E1.51441
G1 X114.224 Y78.34 E1.65184
G1 X116.835 Y79.019 E1.78643
G1 X119.52 Y79.636 E1.92388
G1 X122.825 Y80.294 E2.092
G1 X123.371 Y80.454 E2.12039
G1 X123.885 Y80.697 E2.14875
G1 X124.353 Y81.018 E2.17706
G1 X124.767 Y81.409 E2.20547
G1 X125.113 Y81.861 E2.23387
G1 X125.385 Y82.365 E2.26245
G1 X125.586 Y82.948 E2.29321
G1 X126.152 Y85.223 E2.41017
G1 X126.88 Y87.851 E2.54622
G1 X127.685 Y90.469 E2.68287
G1 X128.555 Y93.041 E2.81833
G1 X129.505 Y95.606 E2.95479
G1 X130.519 Y98.123 E3.09017
G1 X131.621 Y100.647 E3.22758
G1 X132.766 Y103.083 E3.36186
G1 X133.998 Y105.52 E3.4981
G1 X135.318 Y107.96 E3.6365
G1 X136.664 Y110.289 E3.77071
G1 X138.096 Y112.609 E3.90672
G1 X139.403 Y114.608 E4.02588
G1 X139.688 Y115.136 E4.05581
G1 X139.871 Y115.651 E4.08308
G1 X139.995 Y116.488 E4.1253
G1 X140 Y147.99 E5.69694
G1 X139.99 Y148.717 E5.73321
G1 X139.93 Y149.314 E5.76315
G1 X139.784 Y149.863 E5.79149
G1 X139.553 Y150.383 E5.81987
G1 X139.244 Y150.859 E5.84819
G1 X138.862 Y151.283 E5.87666
G1 X138.471 Y151.603 E5.90187
G1 X137.928 Y151.921 E5.93326
G1 X137.457 Y152.105 E5.95849
G1 X136.849 Y152.237 E5.98953
G1 X136.405 Y152.274 E6.01176
G1 X103.136 Y152.276 E7.67155
G1 X102.431 Y152.265 E7.70673
G1 X101.834 Y152.204 E7.73667
G1 X101.284 Y152.057 E7.76507
G1 X100.687 Y151.79 E7.7977
G1 X99.784 Y151.198 E7.85157
G1 X98.875 Y150.584 E7.9063
G1 X96.568 Y149.119 E8.04264
G1 X94.216 Y147.717 E8.17925
G1 X91.855 Y146.399 E8.31415
G1 X89.397 Y145.116 E8.45248
G1 X86.986 Y143.945 E8.5862
G1 X84.32 Y142.76 E8.73175
G1 X84.149 Y142.669 E8.74142
G1 X83.043 Y142.185 E8.80165
G1 X82.36 Y141.785 E8.84114
G1 X81.924 Y141.457 E8.86836
G1 X81.472 Y141.058 E8.89844
G1 X80.933 Y140.375 E8.94185
G1 X80.573 Y139.818 E8.97493
G1 X80.28 Y139.136 E9.01197
G1 X80.063 Y138.498 E9.04559
G1 X79.902 Y137.332 E9.10431
G1 X79.9 Y106.227 E10.65614
G1 X79.919 Y105.164 E10.70919
G1 X80.07 Y104.256 E10.75511
G1 X80.301 Y103.272 E10.80554
G1 X80.903 Y100.545 E10.94486
G1 X81.413 Y97.878 E11.08033
G1 X81.849 Y95.188 E11.21629
G1 X82.206 Y92.511 E11.35102
G1 X82.492 Y89.773 E11.48837
G1 X82.7 Y87.04 E11.62511
G1 X82.827 Y84.366 E11.75867
G1 X82.883 Y81.049 E11.92418
G1 X82.883 Y72.417 E12.35483
G1 X82.896 Y71.72 E12.38961
G1 X82.956 Y71.156 E12.41791
G1 X83.103 Y70.606 E12.44631
G1 X83.335 Y70.087 E12.47467
G1 X83.646 Y69.612 E12.503
M205 X30 Y30
G0 X83.945 Y69.878
M205 X25 Y25
G1 X84.281 Y69.5 E12.52823
G1 X84.673 Y69.181 E12.55344
G1 X85.11 Y68.927 E12.57866
G1 X85.582 Y68.745 E12.6039
G1 X86.076 Y68.639 E12.6291
G1 X86.516 Y68.604 E12.65113
G1 X88.822 Y68.603 E12.76617
G1 X89.525 Y68.613 E12.80125
G1 X90.028 Y68.66 E12.82645
G1 X90.518 Y68.786 E12.85169
G1 X91.043 Y69.021 E12.88039
G1 X93.84 Y70.588 E13.04034
G1 X96.249 Y71.844 E13.17588
G1 X98.73 Y73.05 E13.31351
G1 X101.203 Y74.167 E13.44889
G1 X103.754 Y75.234 E13.58684
G1 X106.298 Y76.213 E13.72284
G1 X108.894 Y77.128 E13.86016
G1 X111.46 Y77.953 E13.99463
G1 X114.117 Y78.725 E14.13267
G1 X116.745 Y79.409 E14.26815
G1 X119.43 Y80.026 E14.4056
G1 X122.716 Y80.679 E14.57274
G1 X123.203 Y80.817 E14.598
G1 X123.662 Y81.029 E14.62322
G1 X124.081 Y81.311 E14.64842
G1 X124.452 Y81.655 E14.67366
G1 X124.763 Y82.054 E14.6989
G1 X125.007 Y82.496 E14.72409
G1 X125.198 Y83.045 E14.75309
G1 X125.764 Y85.32 E14.87005
G1 X126.498 Y87.969 E15.00719
G1 X127.306 Y90.597 E15.14435
G1 X128.18 Y93.18 E15.2804
G1 X129.134 Y95.755 E15.4174
G1 X130.152 Y98.283 E15.55336
G1 X131.254 Y100.807 E15.69077
G1 X132.409 Y103.263 E15.82617
G1 X133.646 Y105.71 E15.96296
G1 X134.966 Y108.15 E16.10137
G1 X136.324 Y110.499 E16.23673
G1 X137.761 Y112.828 E16.37326
G1 X139.068 Y114.827 E16.49242
G1 X139.311 Y115.27 E16.51763
G1 X139.48 Y115.747 E16.54288
G1 X139.599 Y116.547 E16.58323
G1 X139.6 Y147.984 E18.15162
G1 X139.59 Y148.711 E18.1879
G1 X139.543 Y149.214 E18.2131
G1 X139.417 Y149.704 E18.23834
G1 X139.216 Y150.168 E18.26357
G1 X138.944 Y150.594 E18.28879
G1 X138.609 Y150.973 E18.31402
G1 X138.218 Y151.293 E18.33923
G1 X137.782 Y151.548 E18.36443
G1 X137.311 Y151.732 E18.38966
G1 X136.816 Y151.838 E18.41491
G1 X136.372 Y151.875 E18.43714
G1 X103.142 Y151.876 E20.09499
G1 X102.437 Y151.865 E20.13017
G1 X101.934 Y151.817 E20.15538
G1 X101.444 Y151.69 E20.18063
G1 X100.906 Y151.455 E20.20992
G1 X100.008 Y150.867 E20.26347
G1 X99.089 Y150.246 E20.31881
G1 X96.773 Y148.775 E20.45569
G1 X94.421 Y147.373 E20.5923
G1 X92.04 Y146.044 E20.72834
G1 X89.582 Y144.761 E20.86667
G1 X87.161 Y143.585 E21.00095
G1 X84.482 Y142.394 E21.14722
G1 X84.325 Y142.309 E21.15612
G1 X83.244 Y141.839 E21.21493
G1 X82.6 Y141.465 E21.25209
G1 X82.189 Y141.157 E21.27771
G1 X81.737 Y140.758 E21.30779
G1 X81.267 Y140.155 E21.34593
G1 X80.941 Y139.66 E21.3755
G1 X80.648 Y138.978 E21.41254
G1 X80.454 Y138.405 E21.44272
G1 X80.302 Y137.332 E21.49678
G1 X80.3 Y106.233 E23.04832
G1 X80.314 Y105.23 E23.09836
G1 X80.465 Y104.322 E23.14429
G1 X80.692 Y103.358 E23.1937
G1 X81.294 Y100.631 E23.33302
G1 X81.806 Y97.953 E23.46905
G1 X82.244 Y95.252 E23.60556
G1 X82.604 Y92.553 E23.74141
G1 X82.89 Y89.815 E23.87875
G1 X83.099 Y87.07 E24.0161
G1 X83.227 Y84.385 E24.1502
G1 X83.283 Y81.056 E24.31631
G1 X83.283 Y72.424 E24.74696
G1 X83.294 Y71.759 E24.78014
G1 X83.343 Y71.256 E24.80536
G1 X83.47 Y70.766 E24.83061
G1 X83.672 Y70.303 E24.85581
G1 X83.945 Y69.878 E24.88101
M205 X30 Y30
G1 F1800 E17.88101
G1 F3000 Z1.3
;MESH:TEST2.stl
G0 F1800 X89.226 Y84.35 Z1.3
M205 X25 Y25
;TYPE:WALL-INNER
G1 F3000 Z0.3
G1 F1800 E24.88101
G1 X88.992 Y84.153 E24.89628
G1 X88.883 Y83.892 E24.91039
G1 X88.883 Y72.403 E25.48357
G1 X87.083 Y72.403 E25.57338
G1 X87.083 Y87.207 E26.31195
G1 X121.5 Y87.207 E28.02902
G1 X121.5 Y84.407 E28.16872
G1 X89.483 Y84.407 E29.76605
G1 X89.226 Y84.35 E29.77918
M205 X30 Y30
G0 X89.42 Y84.007
M205 X25 Y25
;TYPE:WALL-OUTER
G1 X89.285 Y83.842 E29.78982
G1 X89.283 Y72.003 E30.38047
G1 X86.683 Y72.003 E30.51018
G1 X86.683 Y87.607 E31.28867
G1 X121.9 Y87.607 E33.04565
G1 X121.9 Y84.007 E33.22526
G1 X89.42 Y84.007 E34.84569
M205 X30 Y30
G0 X89.294 Y83.853
G0 X89.061 Y84.694
M205 X25 Y25
;TYPE:SKIN
G1 X89.444 Y84.783 E34.86531
G1 X121.12 Y84.787 E36.44563
G1 X121.12 Y86.827 E36.54741
G1 X87.463 Y86.827 E38.22656
G1 X87.463 Y72.783 E38.92722
G1 X88.503 Y72.783 E38.97911
G1 X88.505 Y83.952 E39.53633
G1 X88.714 Y84.408 E39.56136
G1 X89.061 Y84.694 E39.58379
M205 X30 Y30
G0 X89.192 Y84.423
G0 X88.742 Y83.91
G0 X88.731 Y72.555
G0 X87.235 Y72.555
G0 X87.235 Y87.055
G0 X87.758 Y87.127
G0 X87.758 Y86.626
M205 X25 Y25
G1 X87.662 Y86.53 E39.59056
M205 X30 Y30
G0 X87.662 Y85.965
M205 X25 Y25
G1 X88.324 Y86.626 E39.63724
M205 X30 Y30
G0 X88.889 Y86.626
M205 X25 Y25
G1 X87.662 Y85.399 E39.72381
M205 X30 Y30
G0 X87.662 Y84.833
M205 X25 Y25
G1 X89.455 Y86.626 E39.85031
M205 X30 Y30
G0 X90.021 Y86.626
M205 X25 Y25
G1 X87.662 Y84.268 E40.01672
M205 X30 Y30
G0 X87.662 Y83.702
M205 X25 Y25
G1 X90.586 Y86.626 E40.22302
M205 X30 Y30
G0 X91.152 Y86.626
M205 X25 Y25
G1 X89.512 Y84.987 E40.3387
M205 X30 Y30
G0 X90.078 Y84.987
M205 X25 Y25
G1 X91.718 Y86.626 E40.45437
M205 X30 Y30
G0 X92.283 Y86.626
M205 X25 Y25
G1 X90.644 Y84.987 E40.57001
M205 X30 Y30
G0 X91.209 Y84.987
M205 X25 Y25
G1 X92.849 Y86.626 E40.68569
M205 X30 Y30
G0 X93.415 Y86.626
M205 X25 Y25
G1 X91.775 Y84.987 E40.80136
M205 X30 Y30
G0 X92.341 Y84.987
M205 X25 Y25
G1 X93.98 Y86.626 E40.917
M205 X30 Y30
G0 X94.546 Y86.626
M205 X25 Y25
G1 X92.906 Y84.987 E41.03268
M205 X30 Y30
G0 X93.472 Y84.987
M205 X25 Y25
G1 X95.112 Y86.626 E41.14836
M205 X30 Y30
G0 X95.677 Y86.626
M205 X25 Y25
G1 X94.038 Y84.987 E41.264
M205 X30 Y30
G0 X94.603 Y84.987
M205 X25 Y25
G1 X96.243 Y86.626 E41.37967
M205 X30 Y30
G0 X96.809 Y86.626
M205 X25 Y25
G1 X95.169 Y84.987 E41.49535
M205 X30 Y30
G0 X95.735 Y84.987
M205 X25 Y25
G1 X97.374 Y86.626 E41.61099
M205 X30 Y30
G0 X97.94 Y86.626
M205 X25 Y25
G1 X96.3 Y84.987 E41.72666
M205 X30 Y30
G0 X96.866 Y84.987
M205 X25 Y25
G1 X98.506 Y86.626 E41.84234
M205 X30 Y30
G0 X99.072 Y86.626
M205 X25 Y25
G1 X97.432 Y84.987 E41.95801
M205 X30 Y30
G0 X97.997 Y84.987
M205 X25 Y25
G1 X99.637 Y86.626 E42.07369
M205 X30 Y30
G0 X100.203 Y86.626
M205 X25 Y25
G1 X98.563 Y84.987 E42.18937
M205 X30 Y30
G0 X99.129 Y84.987
M205 X25 Y25
G1 X100.769 Y86.626 E42.30504
M205 X30 Y30
G0 X101.334 Y86.626
M205 X25 Y25
G1 X99.694 Y84.987 E42.42072
M205 X30 Y30
G0 X100.26 Y84.987
M205 X25 Y25
G1 X101.9 Y86.626 E42.53639
M205 X30 Y30
G0 X102.466 Y86.626
M205 X25 Y25
G1 X100.826 Y84.987 E42.65207
M205 X30 Y30
G0 X101.392 Y84.987
M205 X25 Y25
G1 X103.031 Y86.626 E42.76771
M205 X30 Y30
G0 X103.597 Y86.626
M205 X25 Y25
G1 X101.957 Y84.987 E42.88338
M205 X30 Y30
G0 X102.523 Y84.987
M205 X25 Y25
G1 X104.163 Y86.626 E42.99906
M205 X30 Y30
G0 X104.728 Y86.626
M205 X25 Y25
G1 X103.089 Y84.987 E43.1147
M205 X30 Y30
G0 X103.654 Y84.987
M205 X25 Y25
G1 X105.294 Y86.626 E43.23038
M205 X30 Y30
G0 X105.86 Y86.626
M205 X25 Y25
G1 X104.22 Y84.987 E43.34605
M205 X30 Y30
G0 X104.786 Y84.987
M205 X25 Y25
G1 X106.425 Y86.626 E43.46169
M205 X30 Y30
G0 X106.991 Y86.626
M205 X25 Y25
G1 X105.351 Y84.987 E43.57737
M205 X30 Y30
G0 X105.917 Y84.987
M205 X25 Y25
G1 X107.557 Y86.626 E43.69304
M205 X30 Y30
G0 X108.122 Y86.626
M205 X25 Y25
G1 X106.483 Y84.987 E43.80868
M205 X30 Y30
G0 X107.048 Y84.987
M205 X25 Y25
G1 X108.688 Y86.626 E43.92436
M205 X30 Y30
G0 X109.254 Y86.626
M205 X25 Y25
G1 X107.614 Y84.987 E44.04003
M205 X30 Y30
G0 X108.18 Y84.987
M205 X25 Y25
G1 X109.82 Y86.626 E44.15571
M205 X30 Y30
G0 X110.385 Y86.626
M205 X25 Y25
G1 X108.745 Y84.987 E44.27138
M205 X30 Y30
G0 X109.311 Y84.987
M205 X25 Y25
G1 X110.951 Y86.626 E44.38706
M205 X30 Y30
G0 X111.517 Y86.626
M205 X25 Y25
G1 X109.877 Y84.987 E44.50274
M205 X30 Y30
G0 X110.443 Y84.987
M205 X25 Y25
G1 X112.082 Y86.626 E44.61838
M205 X30 Y30
G0 X112.648 Y86.626
M205 X25 Y25
G1 X111.008 Y84.987 E44.73405
M205 X30 Y30
G0 X111.574 Y84.987
M205 X25 Y25
G1 X113.214 Y86.626 E44.84973
M205 X30 Y30
G0 X113.779 Y86.626
M205 X25 Y25
G1 X112.14 Y84.987 E44.96537
M205 X30 Y30
G0 X112.705 Y84.987
M205 X25 Y25
G1 X114.345 Y86.626 E45.08104
M205 X30 Y30
G0 X114.911 Y86.626
M205 X25 Y25
G1 X113.271 Y84.987 E45.19672
M205 X30 Y30
G0 X113.837 Y84.987
M205 X25 Y25
G1 X115.476 Y86.626 E45.31236
M205 X30 Y30
G0 X116.042 Y86.626
M205 X25 Y25
G1 X114.402 Y84.987 E45.42803
M205 X30 Y30
G0 X114.968 Y84.987
M205 X25 Y25
G1 X116.608 Y86.626 E45.54371
M205 X30 Y30
G0 X117.173 Y86.626
M205 X25 Y25
G1 X115.534 Y84.987 E45.65935
M205 X30 Y30
G0 X116.099 Y84.987
M205 X25 Y25
G1 X117.739 Y86.626 E45.77503
M205 X30 Y30
G0 X118.305 Y86.626
M205 X25 Y25
G1 X116.665 Y84.987 E45.8907
M205 X30 Y30
G0 X117.231 Y84.987
M205 X25 Y25
G1 X118.871 Y86.626 E46.00638
M205 X30 Y30
G0 X119.436 Y86.626
M205 X25 Y25
G1 X117.796 Y84.987 E46.12205
M205 X30 Y30
G0 X118.362 Y84.987
M205 X25 Y25
G1 X120.002 Y86.626 E46.23773
M205 X30 Y30
G0 X120.568 Y86.626
M205 X25 Y25
G1 X118.928 Y84.987 E46.3534
M205 X30 Y30
G0 X119.493 Y84.987
M205 X25 Y25
G1 X120.919 Y86.412 E46.45398
M205 X30 Y30
G0 X120.919 Y85.847
M205 X25 Y25
G1 X120.059 Y84.987 E46.51466
M205 X30 Y30
G0 X120.625 Y84.987
M205 X25 Y25
G1 X120.919 Y85.281 E46.5354
M205 X30 Y30
G0 X121.42 Y85.281
G0 X121.348 Y84.559
G0 X89.055 Y84.235
G0 X88.803 Y83.782
G0 X88.307 Y83.782
M205 X25 Y25
G1 X87.662 Y83.136 E46.58095
M205 X30 Y30
G0 X87.662 Y82.57
M205 X25 Y25
G1 X88.307 Y83.216 E46.62649
M205 X30 Y30
G0 X88.307 Y82.65
M205 X25 Y25
G1 X87.662 Y82.005 E46.672
M205 X30 Y30
G0 X87.662 Y81.439
M205 X25 Y25
G1 X88.307 Y82.084 E46.71751
M205 X30 Y30
G0 X88.307 Y81.518
M205 X25 Y25
G1 X87.662 Y80.873 E46.76301
M205 X30 Y30
G0 X87.662 Y80.308
M205 X25 Y25
G1 X88.306 Y80.952 E46.80845
M205 X30 Y30
G0 X88.306 Y80.386
M205 X25 Y25
G1 X87.662 Y79.742 E46.85389
M205 X30 Y30
G0 X87.662 Y79.176
M205 X25 Y25
G1 X88.305 Y79.82 E46.89929
M205 X30 Y30
G0 X88.305 Y79.254
M205 X25 Y25
G1 X87.662 Y78.611 E46.94466
M205 X30 Y30
G0 X87.662 Y78.045
M205 X25 Y25
G1 X88.305 Y78.688 E46.99003
M205 X30 Y30
G0 X88.304 Y78.122
M205 X25 Y25
G1 X87.662 Y77.479 E47.03536
M205 X30 Y30
G0 X87.662 Y76.914
M205 X25 Y25
G1 X88.304 Y77.556 E47.08065
M205 X30 Y30
G0 X88.304 Y76.99
M205 X25 Y25
G1 X87.662 Y76.348 E47.12595
M205 X30 Y30
G0 X87.662 Y75.782
M205 X25 Y25
G1 X88.304 Y76.424 E47.17125
M205 X30 Y30
G0 X88.304 Y75.859
M205 X25 Y25
G1 X87.662 Y75.217 E47.21654
M205 X30 Y30
G0 X87.662 Y74.651
M205 X25 Y25
G1 X88.303 Y75.292 E47.26177
M205 X30 Y30
G0 X88.303 Y74.727
M205 X25 Y25
G1 X87.662 Y74.085 E47.30703
M205 X30 Y30
G0 X87.662 Y73.52
M205 X25 Y25
G1 X88.302 Y74.16 E47.35219
M205 X30 Y30
G0 X88.302 Y73.594
M205 X25 Y25
G1 X87.691 Y72.983 E47.3953
G1 X87.621 Y72.913
M205 X30 Y30
G1 F1800 E40.3953
G1 F3000 Z1.3
G0 F1800 X117.097 Y96.429 Z1.3
M205 X25 Y25
;TYPE:WALL-INNER
G1 F3000 Z0.3
G1 F1800 E47.3953
G1 X115.953 Y97.573 E47.47601
G1 X115.711 Y97.676 E47.48913
G1 X113.488 Y97.676 E47.60004
G1 X113.292 Y97.592 E47.61068
G1 X113.084 Y97.384 E47.62535
G1 X113 Y97.188 E47.63599
G1 X113 Y94.973 E47.7465
G1 X113.153 Y94.675 E47.76321
G1 X113.352 Y94.529 E47.77552
G1 X113.522 Y94.476 E47.78441
G1 X115.711 Y94.476 E47.89362
G1 X115.953 Y94.579 E47.90674
G1 X117.098 Y95.724 E47.98753
G1 X117.201 Y96.076 E48.00582
G1 X117.097 Y96.429 E48.02418
M205 X30 Y30
G1 F1800 E41.02418
G1 F3000 Z1.3
G0 F1800 X121.169 Y101.976 Z1.3
M205 X25 Y25
G1 F3000 Z0.3
G1 F1800 E48.02418
G1 X121.379 Y101.855 E48.03627
G1 X121.499 Y101.647 E48.04825
G1 X121.499 Y89.737 E48.64245
G1 X121.379 Y89.528 E48.65447
G1 X121.171 Y89.409 E48.66643
G1 X109.029 Y89.408 E49.27219
G1 X108.821 Y89.528 E49.28417
G1 X108.702 Y89.734 E49.29604
G1 X108.701 Y101.647 E49.89038
G1 X108.821 Y101.855 E49.90236
G1 X109.029 Y101.975 E49.91434
G1 X121.169 Y101.976 E50.52001
M205 X30 Y30
G0 X121.081 Y102.376
M205 X25 Y25
;TYPE:WALL-OUTER
G1 X121.306 Y102.347 E50.53133
G1 X121.499 Y102.266 E50.54177
G1 X121.664 Y102.14 E50.55213
G1 X121.79 Y101.975 E50.56249
G1 X121.871 Y101.782 E50.57293
G1 X121.899 Y101.569 E50.58365
G1 X121.899 Y89.826 E51.16951
G1 X121.871 Y89.601 E51.18082
G1 X121.79 Y89.408 E51.19126
G1 X121.664 Y89.243 E51.20162
G1 X121.499 Y89.117 E51.21198
G1 X121.306 Y89.036 E51.22242
G1 X121.093 Y89.009 E51.23313
G1 X109.119 Y89.008 E51.83052
G1 X108.894 Y89.036 E51.84183
G1 X108.701 Y89.117 E51.85227
G1 X108.536 Y89.243 E51.86263
G1 X108.41 Y89.408 E51.87299
G1 X108.329 Y89.602 E51.88348
G1 X108.302 Y89.814 E51.89414
G1 X108.301 Y101.557 E52.48
G1 X108.329 Y101.782 E52.49131
