;FLAVOR:Marlin
;TIME:3524
;Filament used: 6.7314m
;Layer height: 0.2
;MINX:81.75
;MINY:72.383
;MINZ:0.3
;MAXX:138.25
;MAXY:149.617
;MAXZ:47.1
;Generated with Cura_SteamEngine 5.4.0
M140 S55
M105
M190 S55
M104 S210
M105
M109 S210
M82 ;absolute extrusion mode
START_PRINT
G92 E0
G92 E0
G1 F1800 E-7
;LAYER_COUNT:235
;LAYER:0
M107
M204 S8000
M205 X30 Y30
G1 F3000 Z1.3
G0 F1800 X99.438 Y73.045 Z1.3
M205 X25 Y25
;TYPE:SKIRT
G1 F3000 Z0.3
G1 F1800 E0
G1 X99.81 Y72.733 E0.02422
G1 X100.359 Y72.46 E0.05481
G1 X100.833 Y72.383 E0.07877
G1 X136.45 Y72.383 E1.85571
G1 X137.056 Y72.507 E1.88657
G1 X137.588 Y72.788 E1.91659
G1 X137.9 Y73.16 E1.94081
G1 X138.173 Y73.709 E1.9714
G1 X138.25 Y74.183 E1.99536
G1 X138.25 Y90.187 E2.7938
G1 X138.126 Y90.793 E2.82466
G1 X137.845 Y91.325 E2.85467
G1 X137.473 Y91.637 E2.8789
G1 X136.924 Y91.91 E2.90949
G1 X136.45 Y91.987 E2.93344
G1 X133.45 Y91.987 E3.08312
G1 X132.844 Y91.863 E3.11397
G1 X132.312 Y91.582 E3.14399
G1 X132 Y91.21 E3.16821
G1 X131.727 Y90.661 E3.1988
G1 X131.65 Y90.187 E3.22276
G1 X131.65 Y79.983 E3.73184
G1 X100.833 Y79.983 E5.26931
G1 X100.227 Y79.859 E5.30017
G1 X99.695 Y79.578 E5.33018
G1 X99.383 Y79.206 E5.35441
G1 X99.11 Y78.657 E5.385
G1 X99.033 Y78.183 E5.40895
G1 X99.033 Y74.183 E5.60851
G1 X99.157 Y73.577 E5.63937
G1 X99.438 Y73.045 E5.66939
M205 X30 Y30
G0 X99.756 Y73.3
M205 X25 Y25
G1 X99.988 Y73.091 E5.68497
G1 X100.482 Y72.845 E5.7125
G1 X100.833 Y72.783 E5.73028
G1 X136.45 Y72.783 E7.50722
G1 X136.869 Y72.861 E7.52849
G1 X137.333 Y73.106 E7.55466
G1 X137.542 Y73.338 E7.57024
G1 X137.788 Y73.832 E7.59778
G1 X137.85 Y74.183 E7.61556
G1 X137.85 Y90.187 E8.414
G1 X137.772 Y90.606 E8.43526
G1 X137.527 Y91.07 E8.46144
G1 X137.295 Y91.279 E8.47702
G1 X136.801 Y91.525 E8.50455
G1 X136.45 Y91.587 E8.52234
G1 X133.45 Y91.587 E8.67201
G1 X133.031 Y91.509 E8.69327
G1 X132.567 Y91.264 E8.71945
G1 X132.358 Y91.032 E8.73503
G1 X132.112 Y90.538 E8.76256
G1 X132.05 Y90.187 E8.78034
G1 X132.05 Y79.583 E9.30938
G1 X100.833 Y79.583 E10.8668
G1 X100.414 Y79.505 E10.88806
G1 X99.95 Y79.26 E10.91424
G1 X99.741 Y79.028 E10.92982
G1 X99.495 Y78.534 E10.95735
G1 X99.433 Y78.183 E10.97513
G1 X99.433 Y74.183 E11.1747
G1 X99.511 Y73.764 E11.19596
G1 X99.756 Y73.3 E11.22214
M205 X30 Y30
G0 X100.04 Y73.582
M205 X25 Y25
G1 X100.178 Y73.443 E11.23191
G1 X100.56 Y73.237 E11.25356
G1 X100.833 Y73.183 E11.26744
G1 X136.45 Y73.183 E13.04438
G1 X136.788 Y73.253 E13.0616
G1 X137.051 Y73.39 E13.0764
G1 X137.19 Y73.528 E13.08617
G1 X137.396 Y73.91 E13.10782
G1 X137.45 Y74.183 E13.12171
G1 X137.45 Y90.187 E13.92015
G1 X137.38 Y90.525 E13.93737
G1 X137.243 Y90.788 E13.95217
G1 X137.105 Y90.927 E13.96194
G1 X136.723 Y91.133 E13.98359
G1 X136.45 Y91.187 E13.99747
G1 X133.45 Y91.187 E14.14714
G1 X133.112 Y91.117 E14.16437
G1 X132.849 Y90.98 E14.17916
G1 X132.71 Y90.842 E14.18893
G1 X132.504 Y90.46 E14.21058
G1 X132.45 Y90.187 E14.22447
G1 X132.45 Y79.217 E14.77176
G1 X132.412 Y79.183 E14.77431
G1 X100.833 Y79.183 E16.34979
G1 X100.495 Y79.113 E16.36701
G1 X100.232 Y78.976 E16.38181
G1 X100.093 Y78.838 E16.39158
G1 X99.887 Y78.456 E16.41323
G1 X99.833 Y78.183 E16.42711
G1 X99.833 Y74.183 E16.62668
G1 X99.903 Y73.845 E16.6439
G1 X100.04 Y73.582 E16.65869
M205 X30 Y30
G0 X100.672 Y74.064
M205 X25 Y25
G1 X100.833 Y73.983 E16.66768
G1 X136.45 Y73.983 E18.44462
G1 X136.569 Y74.022 E18.45087
G1 X136.65 Y74.183 E18.45986
G1 X136.65 Y90.187 E19.2583
G1 X136.611 Y90.306 E19.26455
G1 X136.45 Y90.387 E19.27354
G1 X133.45 Y90.387 E19.42321
G1 X133.331 Y90.348 E19.42946
G1 X133.25 Y90.187 E19.43845
G1 X133.25 Y79.193 E19.98695
G1 X133.221 Y78.975 E19.99792
G1 X133.142 Y78.785 E20.00818
G1 X133.015 Y78.618 E20.01865
G1 X132.85 Y78.493 E20.02898
G1 X132.656 Y78.412 E20.03947
G1 X132.432 Y78.383 E20.05074
G1 X100.833 Y78.383 E21.62722
G1 X100.714 Y78.344 E21.63346
G1 X100.633 Y78.183 E21.64245
G1 X100.633 Y74.183 E21.84202
G1 X100.672 Y74.064 E21.84826
M205 X30 Y30
G0 X100.383 Y73.787
M205 X25 Y25
G1 X100.292 Y73.939 E21.8571
G1 X100.233 Y74.183 E21.86963
G1 X100.233 Y78.183 E22.06919
G1 X100.276 Y78.363 E22.07842
G1 X100.437 Y78.633 E22.0941
G1 X100.589 Y78.724 E22.10294
G1 X100.833 Y78.783 E22.11547
G1 X132.52 Y78.783 E23.69634
G1 X132.732 Y78.906 E23.70856
G1 X132.85 Y79.11 E23.72032
G1 X132.85 Y90.187 E24.27296
G1 X132.893 Y90.367 E24.28219
G1 X133.054 Y90.637 E24.29787
G1 X133.206 Y90.728 E24.30671
G1 X133.45 Y90.787 E24.31923
G1 X136.45 Y90.787 E24.46891
G1 X136.63 Y90.744 E24.47814
G1 X136.9 Y90.583 E24.49382
G1 X136.991 Y90.431 E24.50266
G1 X137.05 Y90.187 E24.51518
G1 X137.05 Y74.183 E25.31363
G1 X137.007 Y74.003 E25.32286
G1 X136.846 Y73.733 E25.33854
G1 X136.694 Y73.642 E25.34738
G1 X136.45 Y73.583 E25.35991
G1 X100.833 Y73.583 E27.13684
G1 X100.653 Y73.626 E27.14608
G1 X100.383 Y73.787 E27.16176
M205 X30 Y30
G1 F1800 E20.16176
G1 F3000 Z1.3
G0 F1800 X106.05 Y100.917 Z1.3
M205 X25 Y25
G1 F3000 Z0.3
G1 F1800 E27.16176
G1 X106.656 Y101.041 E27.19262
G1 X107.188 Y101.322 E27.22264
G1 X107.5 Y101.694 E27.24686
G1 X107.773 Y102.243 E27.27745
G1 X107.85 Y102.717 E27.30141
G1 X107.85 Y103.917 E27.36128
G1 X117.465 Y103.917 E27.84097
G1 X118.071 Y104.041 E27.87183
G1 X118.603 Y104.322 E27.90185
G1 X118.915 Y104.694 E27.92607
G1 X119.188 Y105.243 E27.95666
G1 X119.265 Y105.717 E27.98062
G1 X119.265 Y114.417 E28.41466
G1 X134.711 Y114.435 E29.18527
G1 X135.473 Y114.547 E29.22369
G1 X136.357 Y114.914 E29.27144
G1 X137.15 Y115.522 E29.3213
G1 X137.736 Y116.287 E29.36937
G1 X138.124 Y117.196 E29.41868
G1 X138.25 Y118.216 E29.46996
G1 X138.232 Y146.074 E30.8598
G1 X138.121 Y146.847 E30.89876
G1 X137.75 Y147.729 E30.9465
G1 X137.175 Y148.482 E30.99376
G1 X136.358 Y149.121 E31.04551
G1 X135.464 Y149.491 E31.09378
G1 X134.552 Y149.611 E31.13967
G1 X92.85 Y149.617 E33.22019
G1 X92.244 Y149.493 E33.25105
G1 X91.712 Y149.212 E33.28107
G1 X91.4 Y148.84 E33.30529
G1 X91.127 Y148.291 E33.33588
G1 X91.05 Y147.817 E33.35984
G1 X91.05 Y136.617 E33.91861
G1 X83.55 Y136.617 E34.29279
G1 X82.944 Y136.493 E34.32365
G1 X82.412 Y136.212 E34.35366
G1 X82.1 Y135.84 E34.37789
G1 X81.827 Y135.291 E34.40848
G1 X81.75 Y134.817 E34.43243
G1 X81.75 Y102.717 E36.03391
G1 X81.874 Y102.111 E36.06477
G1 X82.155 Y101.579 E36.09479
G1 X82.527 Y101.267 E36.11901
G1 X83.076 Y100.994 E36.1496
G1 X83.55 Y100.917 E36.17356
G1 X106.05 Y100.917 E37.29609
M205 X30 Y30
G1 F1800 E30.29609
G1 F3000 Z1.3
G0 F1800 X82.705 Y101.625 Z1.3
M205 X25 Y25
G1 F3000 Z0.3
G1 F1800 E37.29609
G1 X83.199 Y101.379 E37.32362
G1 X83.55 Y101.317 E37.3414
G1 X106.05 Y101.317 E38.46393
G1 X106.469 Y101.395 E38.48519
G1 X106.933 Y101.64 E38.51137
G1 X107.142 Y101.872 E38.52695
G1 X107.388 Y102.366 E38.55448
G1 X107.45 Y102.717 E38.57226
G1 X107.45 Y104.317 E38.65209
G1 X117.465 Y104.317 E39.15174
G1 X117.884 Y104.395 E39.173
G1 X118.348 Y104.64 E39.19918
G1 X118.557 Y104.872 E39.21476
G1 X118.803 Y105.366 E39.24229
G1 X118.865 Y105.717 E39.26007
G1 X118.865 Y114.817 E39.71407
G1 X134.653 Y114.831 E40.50174
G1 X135.369 Y114.936 E40.53785
G1 X136.156 Y115.263 E40.58036
G1 X136.865 Y115.807 E40.62495
G1 X137.387 Y116.488 E40.66776
G1 X137.734 Y117.301 E40.71186
G1 X137.85 Y118.216 E40.75787
G1 X137.836 Y146.017 E42.14487
G1 X137.732 Y146.739 E42.18126
G1 X137.401 Y147.527 E42.2239
G1 X136.887 Y148.2 E42.26615
G1 X136.157 Y148.771 E42.31239
G1 X135.36 Y149.101 E42.35543
G1 X134.5 Y149.214 E42.3987
G1 X92.85 Y149.217 E44.47663
G1 X92.431 Y149.139 E44.49789
G1 X91.967 Y148.894 E44.52407
G1 X91.758 Y148.662 E44.53965
G1 X91.512 Y148.168 E44.56718
G1 X91.45 Y147.817 E44.58496
G1 X91.45 Y136.217 E45.16369
G1 X83.55 Y136.217 E45.55782
G1 X83.131 Y136.139 E45.57908
G1 X82.667 Y135.894 E45.60526
G1 X82.458 Y135.662 E45.62084
G1 X82.212 Y135.168 E45.64837
G1 X82.15 Y134.817 E45.66615
G1 X82.15 Y102.717 E47.26763
G1 X82.228 Y102.298 E47.28889
G1 X82.473 Y101.834 E47.31507
G1 X82.705 Y101.625 E47.33065
M205 X30 Y30
G0 X82.895 Y101.977
M205 X25 Y25
G1 X82.757 Y102.116 E47.34042
G1 X82.62 Y102.379 E47.35522
G1 X82.55 Y102.717 E47.37244
G1 X82.55 Y134.817 E48.97391
G1 X82.604 Y135.09 E48.9878
G1 X82.81 Y135.472 E49.00945
G1 X82.949 Y135.61 E49.01922
G1 X83.212 Y135.747 E49.03402
G1 X83.55 Y135.817 E49.05124
G1 X91.85 Y135.817 E49.46533
G1 X91.85 Y147.817 E50.06401
G1 X91.904 Y148.09 E50.07789
G1 X92.11 Y148.472 E50.09954
G1 X92.249 Y148.61 E50.10932
G1 X92.512 Y148.747 E50.12411
G1 X92.85 Y148.817 E50.14133
G1 X134.448 Y148.817 E52.21666
G1 X135.256 Y148.711 E52.25732
G1 X135.956 Y148.421 E52.29512
G1 X136.599 Y147.918 E52.33585
G1 X137.052 Y147.325 E52.37308
G1 X137.343 Y146.631 E52.41063
G1 X137.44 Y145.96 E52.44445
G1 X137.45 Y118.216 E53.8286
G1 X137.344 Y117.406 E53.86936
G1 X137.039 Y116.692 E53.90809
G1 X136.578 Y116.09 E53.94592
G1 X135.956 Y115.613 E53.98503
G1 X135.263 Y115.325 E54.02247
G1 X134.595 Y115.227 E54.05615
G1 X118.465 Y115.217 E54.86088
G1 X118.465 Y105.717 E55.33484
G1 X118.411 Y105.444 E55.34872
G1 X118.205 Y105.062 E55.37038
G1 X118.066 Y104.924 E55.38015
G1 X117.803 Y104.787 E55.39494
G1 X117.465 Y104.717 E55.41216
G1 X107.05 Y104.717 E55.93177
G1 X107.05 Y102.717 E56.03155
G1 X106.996 Y102.444 E56.04543
G1 X106.79 Y102.062 E56.06709
G1 X106.651 Y101.924 E56.07686
G1 X106.388 Y101.787 E56.09165
G1 X106.05 Y101.717 E56.10887
G1 X83.55 Y101.717 E57.2314
G1 X83.277 Y101.771 E57.24529
G1 X82.895 Y101.977 E57.26694
M205 X30 Y30
G0 X83.389 Y102.598
M205 X25 Y25
G1 X83.35 Y102.717 E57.27319
G1 X83.35 Y134.817 E58.87466
G1 X83.431 Y134.978 E58.88365
G1 X83.55 Y135.017 E58.8899
G1 X92.65 Y135.017 E59.3439
G1 X92.65 Y147.817 E59.9825
G1 X92.731 Y147.978 E59.99149
G1 X92.85 Y148.017 E59.99774
G1 X134.448 Y148.017 E62.07307
G1 X135.047 Y147.933 E62.10325
G1 X135.549 Y147.724 E62.13037
G1 X136.023 Y147.354 E62.16037
G1 X136.356 Y146.919 E62.18771
G1 X136.565 Y146.418 E62.21479
G1 X136.648 Y145.846 E62.24362
G1 X136.65 Y118.216 E63.62209
G1 X136.566 Y117.622 E63.65202
G1 X136.342 Y117.097 E63.6805
G1 X136.007 Y116.66 E63.70797
G1 X135.553 Y116.312 E63.73651
G1 X135.051 Y116.103 E63.76364
G1 X134.479 Y116.019 E63.79248
G1 X117.665 Y116.017 E64.63133
G1 X117.665 Y105.717 E65.1452
G1 X117.584 Y105.556 E65.15419
G1 X117.465 Y105.517 E65.16044
G1 X106.25 Y105.517 E65.71996
G1 X106.25 Y102.717 E65.85965
G1 X106.169 Y102.556 E65.86864
G1 X106.05 Y102.517 E65.87489
G1 X83.55 Y102.517 E66.99742
G1 X83.389 Y102.598 E67.00641
M205 X30 Y30
G0 X83.1 Y102.321
M205 X25 Y25
G1 X83.009 Y102.473 E67.01525
G1 X82.95 Y102.717 E67.02778
G1 X82.95 Y134.817 E68.62925
G1 X82.993 Y134.997 E68.63848
G1 X83.154 Y135.267 E68.65417
G1 X83.306 Y135.358 E68.66301
G1 X83.55 Y135.417 E68.67553
G1 X92.25 Y135.417 E69.10957
G1 X92.25 Y147.817 E69.72821
G1 X92.293 Y147.997 E69.73745
G1 X92.454 Y148.267 E69.75313
G1 X92.606 Y148.358 E69.76197
G1 X92.85 Y148.417 E69.77449
G1 X134.448 Y148.417 E71.84982
G1 X135.152 Y148.322 E71.88527
G1 X135.752 Y148.073 E71.91767
G1 X136.311 Y147.636 E71.95307
G1 X136.704 Y147.122 E71.98535
G1 X136.954 Y146.524 E72.01769
G1 X137.044 Y145.903 E72.049
G1 X137.05 Y118.216 E73.43031
G1 X136.955 Y117.514 E73.46565
G1 X136.691 Y116.896 E73.49918
G1 X136.292 Y116.375 E73.53192
G1 X135.753 Y115.962 E73.56579
G1 X135.157 Y115.714 E73.598
G1 X134.537 Y115.623 E73.62926
G1 X118.065 Y115.617 E74.45105
G1 X118.065 Y105.717 E74.94497
G1 X118.022 Y105.537 E74.9542
G1 X117.861 Y105.267 E74.96988
G1 X117.709 Y105.176 E74.97872
G1 X117.465 Y105.117 E74.99125
G1 X106.65 Y105.117 E75.53081
G1 X106.65 Y102.717 E75.65054
G1 X106.607 Y102.537 E75.65978
G1 X106.446 Y102.267 E75.67546
G1 X106.294 Y102.176 E75.6843
G1 X106.05 Y102.117 E75.69682
G1 X83.55 Y102.117 E76.81935
G1 X83.37 Y102.16 E76.82859
G1 X83.1 Y102.321 E76.84427
M205 X30 Y30
G1 F1800 E69.84427
G1 F3000 Z1.3
G0 F1800 X120.659 Y97.461 Z1.3
M205 X25 Y25
G1 F3000 Z0.3
G1 F1800 E76.84427
G1 X120.81 Y96.713 E76.88234
G1 X121.089 Y96.149 E76.91373
G1 X121.497 Y95.647 E76.94601
G1 X122.071 Y95.198 E76.98236
G1 X122.81 Y94.92 E77.02176
G1 X123.452 Y94.846 E77.054
G1 X135.639 Y94.855 E77.66201
G1 X136.39 Y95.008 E77.70025
G1 X137.031 Y95.336 E77.73617
G1 X137.515 Y95.764 E77.7684
G1 X137.923 Y96.334 E77.80337
G1 X138.172 Y96.995 E77.83861
G1 X138.234 Y97.409 E77.8595
G1 X138.241 Y108.6 E78.41782
G1 X138.09 Y109.35 E78.45599
G1 X137.757 Y110.002 E78.49251
G1 X137.28 Y110.537 E78.52827
G1 X136.704 Y110.911 E78.56254
G1 X136.101 Y111.137 E78.59466
G1 X135.684 Y111.199 E78.6157
G1 X123.425 Y111.213 E79.2273
G1 X122.583 Y111.089 E79.26976
G1 X121.861 Y110.72 E79.31021
G1 X121.33 Y110.248 E79.34566
G1 X120.949 Y109.662 E79.38053
G1 X120.728 Y109.069 E79.4121
G1 X120.666 Y108.652 E79.43314
G1 X120.659 Y97.461 E79.99146
M205 X30 Y30
G1 F1800 E72.99146
G1 F3000 Z1.3
G0 F1800 X121.428 Y96.366 Z1.3
M205 X25 Y25
G1 F3000 Z0.3
G1 F1800 E79.99146
G1 X121.779 Y95.935 E80.01919
G1 X122.271 Y95.55 E80.05036
G1 X122.904 Y95.312 E80.0841
G1 X123.452 Y95.246 E80.11163
G1 X135.598 Y95.255 E80.7176
G1 X136.257 Y95.389 E80.75115
G1 X136.802 Y95.668 E80.7817
G1 X137.217 Y96.035 E80.80934
G1 X137.568 Y96.525 E80.83941
G1 X137.782 Y97.093 E80.86969
G1 X137.838 Y97.468 E80.88861
G1 X137.841 Y108.561 E81.44204
G1 X137.709 Y109.217 E81.47542
G1 X137.425 Y109.773 E81.50657
G1 X137.018 Y110.23 E81.5371
G1 X136.522 Y110.552 E81.5666
G1 X136.001 Y110.747 E81.59436
G1 X135.625 Y110.803 E81.61332
G1 X123.425 Y110.813 E82.22198
G1 X122.707 Y110.703 E82.25822
G1 X122.09 Y110.388 E82.29278
G1 X121.635 Y109.983 E82.32317
G1 X121.31 Y109.483 E82.35293
G1 X121.118 Y108.969 E82.3803
G1 X121.062 Y108.593 E82.39927
G1 X121.059 Y97.5 E82.9527
G1 X121.191 Y96.845 E82.98603
G1 X121.428 Y96.366 E83.0127
M205 X30 Y30
G0 X122.026 Y96.25
M205 X25 Y25
G1 X122.469 Y95.903 E83.04077
G1 X123 Y95.704 E83.06906
G1 X123.452 Y95.646 E83.0918
G1 X135.557 Y95.655 E83.69572
G1 X136.124 Y95.77 E83.72458
G1 X136.577 Y96.002 E83.74997
G1 X136.892 Y96.268 E83.77054
G1 X137.213 Y96.716 E83.79804
G1 X137.392 Y97.191 E83.82336
G1 X137.442 Y97.527 E83.84031
G1 X137.441 Y108.522 E84.38885
G1 X137.328 Y109.084 E84.41745
G1 X137.093 Y109.544 E84.44322
G1 X136.755 Y109.924 E84.4686
G1 X136.382 Y110.177 E84.49108
G1 X135.901 Y110.357 E84.5167
G1 X135.566 Y110.407 E84.5336
G1 X123.425 Y110.413 E85.13932
G1 X122.832 Y110.317 E85.16929
G1 X122.317 Y110.055 E85.19812
G1 X121.941 Y109.72 E85.22324
G1 X121.685 Y109.343 E85.24598
G1 X121.508 Y108.869 E85.27122
G1 X121.458 Y108.534 E85.28812
G1 X121.459 Y97.539 E85.83666
G1 X121.572 Y96.977 E85.86526
G1 X121.744 Y96.612 E85.88539
G1 X122.026 Y96.25 E85.90828
M205 X30 Y30
G0 X122.584 Y96.817
M205 X25 Y25
G1 X122.83 Y96.621 E85.92398
G1 X123.112 Y96.496 E85.93936
G1 X123.452 Y96.446 E85.95651
G1 X135.488 Y96.449 E86.55699
G1 X135.788 Y96.496 E86.57214
G1 X136.07 Y96.621 E86.58753
G1 X136.316 Y96.817 E86.60322
G1 X136.476 Y97.026 E86.61635
G1 X136.6 Y97.309 E86.63177
G1 X136.65 Y97.645 E86.64871
G1 X136.647 Y108.453 E87.18793
G1 X136.6 Y108.751 E87.20298
G1 X136.476 Y109.035 E87.21844
G1 X136.279 Y109.281 E87.23416
G1 X136.074 Y109.438 E87.24704
G1 X135.783 Y109.565 E87.26288
G1 X135.448 Y109.615 E87.27978
G1 X123.425 Y109.613 E87.87961
G1 X123.117 Y109.565 E87.89516
G1 X122.826 Y109.438 E87.91101
G1 X122.584 Y109.244 E87.92648
G1 X122.424 Y109.035 E87.93961
G1 X122.3 Y108.751 E87.95507
G1 X122.25 Y108.416 E87.97197
G1 X122.253 Y97.608 E88.51118
G1 X122.3 Y97.309 E88.52628
G1 X122.424 Y97.026 E88.5417
G1 X122.584 Y96.817 E88.55483
M205 X30 Y30
G0 X122.106 Y96.783
M205 X25 Y25
G1 X122.335 Y96.504 E88.57284
