;FLAVOR:Marlin
;TIME:895
;Filament used: 1.60824m
;Layer height: 0.2
;MINX:69.742
;MINY:69.741
;MINZ:0.3
;MAXX:150.254
;MAXY:150.253
;MAXZ:5.9
;Generated with Cura_SteamEngine 5.4.0
M140 S55
M105
M190 S55
M104 S210
M105
M109 S210
M82 ;absolute extrusion mode
START_PRINT
G92 E0
G92 E0
G1 F1500 E-4
;LAYER_COUNT:24
;LAYER:0
M107
M204 S8000
M205 X30 Y30
G1 F3000 Z1.3
G0 F1800 X72.47 Y73.368 Z1.3
M205 X25 Y25
;TYPE:SKIRT
G1 F3000 Z0.3
G1 F1500 E0
G1 F1800 X73.444 Y72.403 E0.0684
G1 X74.338 Y71.703 E0.12505
G1 X75.598 Y70.94 E0.19854
G1 X76.679 Y70.457 E0.25761
G1 X78.063 Y70.03 E0.32987
G1 X79.159 Y69.83 E0.38545
G1 X80.53 Y69.741 E0.454
G1 X130.554 Y69.741 E2.9497
G1 X131.957 Y69.837 E3.01986
G1 X133.235 Y70.084 E3.0848
G1 X134.34 Y70.432 E3.1426
G1 X135.66 Y71.032 E3.21494
G1 X136.648 Y71.636 E3.27271
G1 X137.766 Y72.515 E3.34367
G1 X138.566 Y73.316 E3.40014
G1 X139.492 Y74.501 E3.47517
G1 X140.142 Y75.597 E3.53875
G1 X140.625 Y76.678 E3.59782
G1 X141.052 Y78.062 E3.67008
G1 X141.252 Y79.158 E3.72566
G1 X141.342 Y80.528 E3.79416
G1 X141.342 Y88.791 E4.2064
G1 X141.91 Y88.831 E4.23481
G1 X143.149 Y89.063 E4.29769
G1 X144.349 Y89.435 E4.36037
G1 X145.352 Y89.872 E4.41496
G1 X146.586 Y90.593 E4.48626
G1 X147.515 Y91.297 E4.54441
G1 X148.51 Y92.258 E4.61343
G1 X149.108 Y93.023 E4.66187
G1 X149.562 Y93.81 E4.7072
G1 X149.909 Y94.663 E4.75314
G1 X150.189 Y95.847 E4.81384
G1 X150.254 Y96.613 E4.85219
G1 X150.181 Y97.795 E4.91128
G1 X149.956 Y98.796 E4.96246
G1 X149.682 Y99.534 E5.00174
G1 X136.896 Y127.312 E6.52735
G1 X136.503 Y127.939 E6.56427
G1 X135.89 Y128.534 E6.60689
G1 X135.319 Y128.893 E6.64054
G1 X90.565 Y149.671 E9.10223
G1 X89.63 Y150.006 E9.15178
G1 X88.787 Y150.184 E9.19476
G1 X87.63 Y150.253 E9.25259
G1 X86.661 Y150.161 E9.30115
G1 X85.823 Y149.96 E9.34414
G1 X84.741 Y149.524 E9.40234
G1 X83.858 Y148.991 E9.4538
G1 X83.155 Y148.416 E9.49911
G1 X82.25 Y147.457 E9.56489
G1 X81.474 Y146.403 E9.63019
G1 X80.875 Y145.354 E9.69046
G1 X80.428 Y144.326 E9.74638
G1 X80.024 Y142.977 E9.81664
G1 X79.807 Y141.693 E9.88161
G1 X79.742 Y140.554 E9.93852
G1 X79.742 Y133.462 E10.29234
G1 X79.709 Y133.138 E10.30859
G1 X79.638 Y132.908 E10.3206
G1 X79.365 Y132.511 E10.34464
G1 X79.181 Y132.366 E10.35633
G1 X78.922 Y132.236 E10.37078
G1 X77.433 Y131.882 E10.44714
G1 X76.396 Y131.511 E10.50209
G1 X75.097 Y130.866 E10.57445
G1 X74.197 Y130.278 E10.62808
G1 X73.082 Y129.347 E10.70055
G1 X72.282 Y128.495 E10.75886
G1 X71.476 Y127.406 E10.82645
G1 X70.877 Y126.357 E10.88672
G1 X70.429 Y125.328 E10.94271
G1 X70.015 Y123.939 E11.01502
G1 X69.812 Y122.743 E11.07554
G1 X69.742 Y121.554 E11.13496
G1 X69.746 Y80.424 E13.18695
G1 X69.838 Y79.127 E13.25182
G1 X70.052 Y77.986 E13.30973
G1 X70.487 Y76.608 E13.38183
G1 X71.012 Y75.465 E13.44458
G1 X71.72 Y74.315 E13.51195
G1 X72.47 Y73.368 E13.57222
M205 X30 Y30
G0 X72.784 Y73.616
M205 X25 Y25
G1 X73.691 Y72.718 E13.6359
G1 X74.585 Y72.018 E13.69255
G1 X75.762 Y71.305 E13.7612
G1 X76.798 Y70.839 E13.81788
G1 X78.135 Y70.424 E13.88772
G1 X79.231 Y70.224 E13.9433
G1 X80.53 Y70.141 E14.00824
G1 X130.554 Y70.141 E16.50395
G1 X131.882 Y70.23 E16.57035
G1 X133.115 Y70.466 E16.63298
G1 X134.22 Y70.814 E16.69078
G1 X135.451 Y71.373 E16.75823
G1 X136.439 Y71.977 E16.816
G1 X137.483 Y72.798 E16.88227
G1 X138.283 Y73.599 E16.93874
G1 X139.148 Y74.706 E17.00883
G1 X139.777 Y75.761 E17.07011
G1 X140.243 Y76.797 E17.12679
G1 X140.658 Y78.134 E17.19663
G1 X140.858 Y79.23 E17.25221
G1 X140.942 Y80.528 E17.31711
G1 X140.942 Y89.166 E17.74806
G1 X141.837 Y89.224 E17.7928
G1 X143.031 Y89.445 E17.85338
G1 X144.189 Y89.802 E17.91384
G1 X145.192 Y90.239 E17.96842
G1 X146.344 Y90.912 E18.03498
G1 X147.273 Y91.616 E18.09314
G1 X148.196 Y92.505 E18.15707
G1 X148.762 Y93.224 E18.20272
G1 X149.191 Y93.961 E18.24527
G1 X149.538 Y94.814 E18.29121
G1 X149.79 Y95.881 E18.34591
G1 X149.855 Y96.647 E18.38426
G1 X149.79 Y97.709 E18.43734
G1 X149.581 Y98.657 E18.48578
G1 X149.307 Y99.395 E18.52505
G1 X136.557 Y127.1 E20.0466
G1 X136.191 Y127.684 E20.08099
G1 X135.642 Y128.217 E20.11916
G1 X135.106 Y128.554 E20.15075
G1 X90.429 Y149.295 E22.60818
G1 X89.545 Y149.615 E22.65508
G1 X88.761 Y149.785 E22.6951
G1 X87.667 Y149.855 E22.7498
G1 X86.752 Y149.771 E22.79564
G1 X85.973 Y149.589 E22.83555
G1 X84.891 Y149.153 E22.89375
G1 X84.111 Y148.681 E22.93923
G1 X83.408 Y148.106 E22.98454
G1 X82.572 Y147.219 E23.04535
G1 X81.821 Y146.204 E23.10835
G1 X81.242 Y145.194 E23.16643
G1 X80.795 Y144.166 E23.22235
G1 X80.407 Y142.863 E23.29018
G1 X80.206 Y141.67 E23.35054
G1 X80.142 Y140.554 E23.40631
G1 X80.142 Y133.442 E23.76113
G1 X80.103 Y133.057 E23.78043
G1 X80.008 Y132.751 E23.79642
G1 X79.856 Y132.474 E23.81218
G1 X79.647 Y132.224 E23.82844
G1 X79.397 Y132.026 E23.84435
G1 X79.062 Y131.858 E23.86305
G1 X77.568 Y131.505 E23.93963
G1 X76.531 Y131.134 E23.99458
G1 X75.316 Y130.531 E24.06225
G1 X74.416 Y129.943 E24.11589
G1 X73.374 Y129.073 E24.18361
G1 X72.574 Y128.221 E24.24192
G1 X71.823 Y127.207 E24.30487
G1 X71.244 Y126.197 E24.36295
G1 X70.796 Y125.168 E24.41894
G1 X70.409 Y123.871 E24.48647
G1 X70.211 Y122.719 E24.54479
G1 X70.142 Y121.554 E24.60301
G1 X70.145 Y80.451 E26.65365
G1 X70.231 Y79.201 E26.71616
G1 X70.445 Y78.06 E26.77408
G1 X70.851 Y76.774 E26.84136
G1 X71.353 Y75.674 E26.90168
G1 X72.034 Y74.563 E26.96669
G1 X72.784 Y73.616 E27.02696
M205 X30 Y30
G0 X73.098 Y73.864
M205 X25 Y25
G1 X73.938 Y73.033 E27.08591
G1 X74.832 Y72.333 E27.14256
G1 X75.926 Y71.67 E27.20638
G1 X76.962 Y71.204 E27.26305
G1 X78.207 Y70.818 E27.32808
G1 X79.303 Y70.618 E27.38367
G1 X80.53 Y70.541 E27.445
G1 X130.554 Y70.541 E29.94071
G1 X131.808 Y70.623 E30.0034
G1 X132.995 Y70.848 E30.06368
G1 X134.1 Y71.196 E30.12148
G1 X135.243 Y71.715 E30.1841
G1 X136.192 Y72.292 E30.23951
G1 X137.2 Y73.081 E30.30338
G1 X138 Y73.882 E30.35986
G1 X138.805 Y74.912 E30.42508
G1 X139.412 Y75.925 E30.48399
G1 X139.878 Y76.961 E30.54067
G1 X140.264 Y78.206 E30.6057
G1 X140.464 Y79.302 E30.66128
G1 X140.542 Y80.528 E30.72257
G1 X140.542 Y89.542 E31.17228
G1 X141.765 Y89.617 E31.23341
G1 X142.914 Y89.828 E31.29169
G1 X144.029 Y90.169 E31.34986
G1 X145.032 Y90.606 E31.40445
G1 X146.102 Y91.231 E31.46627
G1 X147.031 Y91.935 E31.52442
G1 X147.883 Y92.754 E31.58338
G1 X148.417 Y93.427 E31.62624
G1 X148.82 Y94.112 E31.66589
G1 X149.167 Y94.965 E31.71184
G1 X149.391 Y95.915 E31.76053
G1 X149.456 Y96.681 E31.79889
G1 X149.399 Y97.625 E31.84607
G1 X149.206 Y98.518 E31.89165
G1 X148.932 Y99.256 E31.93092
G1 X136.218 Y126.888 E33.44842
G1 X135.879 Y127.429 E33.48027
G1 X135.394 Y127.9 E33.514
G1 X134.893 Y128.215 E33.54352
G1 X90.291 Y148.919 E35.99678
G1 X89.46 Y149.224 E36.04094
G1 X88.676 Y149.394 E36.08096
G1 X87.702 Y149.457 E36.12966
G1 X86.843 Y149.381 E36.17268
G1 X86.064 Y149.199 E36.21259
G1 X85.097 Y148.81 E36.26459
G1 X84.364 Y148.371 E36.30722
G1 X83.661 Y147.796 E36.35253
G1 X82.893 Y146.98 E36.40844
G1 X82.168 Y146.004 E36.46909
G1 X81.609 Y145.034 E36.52495
G1 X81.162 Y144.006 E36.58087
G1 X80.801 Y142.796 E36.64387
G1 X80.605 Y141.647 E36.70202
G1 X80.542 Y140.554 E36.75664
G1 X80.542 Y133.422 E37.11246
G1 X80.497 Y132.976 E37.13482
G1 X80.378 Y132.594 E37.15479
G1 X80.188 Y132.246 E37.17457
G1 X79.928 Y131.937 E37.19471
G1 X79.614 Y131.688 E37.21471
G1 X79.2 Y131.48 E37.23782
G1 X77.703 Y131.128 E37.31454
G1 X76.666 Y130.757 E37.36949
G1 X75.535 Y130.196 E37.43248
G1 X74.635 Y129.608 E37.48611
G1 X73.666 Y128.799 E37.54909
G1 X72.866 Y127.947 E37.6074
G1 X72.17 Y127.007 E37.66575
G1 X71.611 Y126.037 E37.7216
G1 X71.163 Y125.008 E37.7776
G1 X70.803 Y123.802 E37.84039
G1 X70.61 Y122.695 E37.89645
G1 X70.542 Y121.554 E37.95347
G1 X70.544 Y80.478 E40.00276
G1 X70.624 Y79.275 E40.06291
G1 X70.838 Y78.134 E40.12083
G1 X71.215 Y76.939 E40.18335
G1 X71.695 Y75.882 E40.24126
G1 X72.348 Y74.811 E40.30384
G1 X73.098 Y73.864 E40.36411
M205 X30 Y30
G0 X73.663 Y74.431
M205 X25 Y25
G1 X74.432 Y73.663 E40.41833
G1 X75.326 Y72.963 E40.47498
G1 X76.254 Y72.4 E40.52913
G1 X77.29 Y71.934 E40.58581
G1 X78.351 Y71.606 E40.64121
G1 X79.447 Y71.406 E40.6968
G1 X80.53 Y71.341 E40.75093
G1 X130.554 Y71.341 E43.24663
G1 X131.661 Y71.409 E43.30197
G1 X132.756 Y71.612 E43.35753
G1 X133.816 Y71.943 E43.41293
G1 X134.827 Y72.399 E43.46826
G1 X135.776 Y72.976 E43.52367
G1 X136.634 Y73.647 E43.57801
G1 X137.434 Y74.448 E43.63449
G1 X138.12 Y75.325 E43.69004
G1 X138.682 Y76.253 E43.74417
G1 X139.148 Y77.289 E43.80084
G1 X139.476 Y78.35 E43.85625
G1 X139.676 Y79.446 E43.91183
G1 X139.742 Y80.528 E43.96591
G1 X139.742 Y90.341 E44.45548
G1 X140.554 Y90.341 E44.49599
G1 X141.624 Y90.405 E44.54947
G1 X142.683 Y90.594 E44.60314
G1 X143.71 Y90.903 E44.65665
G1 X144.671 Y91.319 E44.70889
G1 X145.621 Y91.87 E44.76368
G1 X146.48 Y92.514 E44.81724
G1 X147.26 Y93.255 E44.87092
G1 X147.727 Y93.833 E44.90799
G1 X148.13 Y94.518 E44.94764
G1 X148.407 Y95.207 E44.98469
G1 X148.593 Y95.983 E45.0245
G1 X148.658 Y96.749 E45.06285
G1 X148.609 Y97.516 E45.1012
G1 X148.456 Y98.24 E45.13812
G1 X148.182 Y98.978 E45.17739
G1 X135.54 Y126.464 E46.68677
G1 X135.253 Y126.922 E46.71373
G1 X134.933 Y127.244 E46.73638
G1 X134.467 Y127.537 E46.76384
G1 X89.983 Y148.181 E49.2105
G1 X89.29 Y148.442 E49.24744
G1 X88.506 Y148.612 E49.28747
G1 X87.768 Y148.659 E49.32436
G1 X86.967 Y148.592 E49.36446
G1 X86.248 Y148.42 E49.40134
G1 X85.503 Y148.121 E49.44139
G1 X84.867 Y147.748 E49.47818
G1 X84.243 Y147.246 E49.51813
G1 X83.505 Y146.466 E49.57171
G1 X82.861 Y145.604 E49.62539
G1 X82.323 Y144.675 E49.67895
G1 X81.896 Y143.688 E49.7326
G1 X81.589 Y142.659 E49.78617
G1 X81.403 Y141.601 E49.83977
G1 X81.342 Y140.554 E49.89209
G1 X81.342 Y133.382 E50.2499
G1 X81.285 Y132.814 E50.27838
G1 X81.118 Y132.28 E50.3063
G1 X80.85 Y131.79 E50.33416
G1 X80.49 Y131.363 E50.36202
G1 X80.048 Y131.012 E50.39018
G1 X79.55 Y130.761 E50.418
G1 X78.993 Y130.609 E50.44681
G1 X77.973 Y130.374 E50.49903
G1 X76.936 Y130.003 E50.55398
G1 X75.973 Y129.526 E50.60759
G1 X75.073 Y128.938 E50.66123
G1 X74.247 Y128.25 E50.71486
G1 X73.507 Y127.469 E50.76854
G1 X72.863 Y126.607 E50.82222
G1 X72.325 Y125.678 E50.87578
G1 X71.897 Y124.69 E50.9295
G1 X71.591 Y123.662 E50.98301
G1 X71.403 Y122.601 E51.03676
G1 X71.342 Y121.554 E51.08909
G1 X71.342 Y80.529 E53.13583
G1 X71.41 Y79.422 E53.19117
G1 X71.613 Y78.327 E53.24673
G1 X71.944 Y77.268 E53.30208
G1 X72.401 Y76.255 E53.35752
G1 X72.977 Y75.306 E53.41291
G1 X73.663 Y74.431 E53.46838
M205 X30 Y30
G0 X73.38 Y74.148
M205 X25 Y25
G1 X74.185 Y73.348 E53.525
G1 X75.079 Y72.648 E53.58165
G1 X76.09 Y72.035 E53.64063
G1 X77.126 Y71.569 E53.69731
G1 X78.279 Y71.212 E53.75753
G1 X79.375 Y71.012 E53.81311
G1 X80.53 Y70.941 E53.87084
G1 X130.554 Y70.941 E56.36655
G1 X131.734 Y71.016 E56.42554
G1 X132.875 Y71.23 E56.48346
G1 X133.98 Y71.578 E56.54125
G1 X135.035 Y72.057 E56.59906
G1 X135.984 Y72.634 E56.65447
G1 X136.917 Y73.364 E56.71357
G1 X137.717 Y74.165 E56.77005
G1 X138.462 Y75.118 E56.8304
G1 X139.047 Y76.089 E56.88696
G1 X139.513 Y77.125 E56.94363
G1 X139.87 Y78.278 E57.00385
G1 X140.07 Y79.374 E57.05943
G1 X140.142 Y80.528 E57.11712
G1 X140.142 Y89.941 E57.58673
G1 X140.578 Y89.942 E57.60848
G1 X141.694 Y90.011 E57.66427
G1 X142.798 Y90.211 E57.72024
G1 X143.869 Y90.536 E57.77608
G1 X144.872 Y90.973 E57.83066
G1 X145.861 Y91.55 E57.88779
G1 X146.755 Y92.224 E57.94365
G1 X147.571 Y93.004 E57.99996
G1 X148.072 Y93.63 E58.03997
G1 X148.475 Y94.315 E58.07962
G1 X148.796 Y95.114 E58.12258
G1 X148.992 Y95.949 E58.16537
G1 X149.057 Y96.715 E58.20372
G1 X149.008 Y97.542 E58.24505
G1 X148.831 Y98.379 E58.28773
G1 X148.557 Y99.117 E58.32701
G1 X135.879 Y126.676 E59.84044
G1 X135.567 Y127.174 E59.86976
G1 X135.146 Y127.583 E59.89904
G1 X134.68 Y127.876 E59.92651
G1 X90.151 Y148.544 E62.3757
G1 X89.375 Y148.833 E62.41701
G1 X88.591 Y149.003 E62.45704
G1 X87.735 Y149.058 E62.49983
G1 X86.934 Y148.991 E62.53993
G1 X86.155 Y148.809 E62.57984
G1 X85.301 Y148.466 E62.62576
G1 X84.616 Y148.06 E62.66549
G1 X83.952 Y147.521 E62.70815
G1 X83.214 Y146.741 E62.76172
G1 X82.515 Y145.804 E62.82005
G1 X81.956 Y144.834 E62.8759
G1 X81.529 Y143.847 E62.92955
G1 X81.195 Y142.728 E62.98781
G1 X81.004 Y141.624 E63.04371
G1 X80.942 Y140.554 E63.09718
G1 X80.942 Y133.402 E63.454
G1 X80.891 Y132.895 E63.47942
G1 X80.748 Y132.437 E63.50336
G1 X80.519 Y132.018 E63.52718
G1 X80.209 Y131.65 E63.55119
G1 X79.831 Y131.35 E63.57526
G1 X79.407 Y131.137 E63.59893
G1 X78.903 Y130.999 E63.625
G1 X77.838 Y130.751 E63.67956
G1 X76.801 Y130.38 E63.73451
G1 X75.754 Y129.861 E63.79281
G1 X74.854 Y129.273 E63.84644
G1 X73.957 Y128.525 E63.90471
G1 X73.187 Y127.708 E63.96072
G1 X72.517 Y126.807 E64.01674
G1 X71.958 Y125.837 E64.07259
G1 X71.53 Y124.849 E64.12631
G1 X71.197 Y123.732 E64.18446
G1 X71.009 Y122.671 E64.23822
G1 X70.942 Y121.554 E64.29405
G1 X70.943 Y80.504 E66.34204
G1 X71.017 Y79.349 E66.39978
G1 X71.231 Y78.208 E66.4577
G1 X71.579 Y77.104 E66.51545
G1 X72.059 Y76.047 E66.57337
G1 X72.662 Y75.059 E66.63111
G1 X73.38 Y74.148 E66.68898
M205 X30 Y30
G1 F1500 E62.68898
G1 F3000 Z1.3
;MESH:bracket_raspiboard.stl
G0 F1800 X86.542 Y98.146 Z1.3
M205 X25 Y25
;TYPE:WALL-INNER
G1 F3000 Z0.3
G1 F1500 E66.68898
G1 F1800 X85.863 Y98.056 E66.72315
G1 X85.241 Y97.798 E66.75675
G1 X84.702 Y97.386 E66.7906
G1 X84.285 Y96.843 E66.82475
G1 X84.03 Y96.228 E66.85797
G1 X83.938 Y95.541 E66.89255
G1 X84.029 Y94.853 E66.92717
G1 X84.288 Y94.233 E66.96069
G1 X84.699 Y93.697 E66.99439
G1 X85.241 Y93.282 E67.02845
G1 X85.866 Y93.024 E67.06218
G1 X86.542 Y92.936 E67.09619
G1 X87.213 Y93.023 E67.12995
G1 X87.843 Y93.282 E67.16393
G1 X88.385 Y93.697 E67.19799
G1 X88.796 Y94.233 E67.23169
G1 X89.062 Y94.87 E67.26613
G1 X89.141 Y95.541 E67.29983
G1 X89.061 Y96.212 E67.33355
G1 X88.799 Y96.843 E67.36763
G1 X88.382 Y97.386 E67.40179
G1 X87.845 Y97.797 E67.43553
G1 X87.218 Y98.057 E67.46939
G1 X86.542 Y98.146 E67.50341
M205 X30 Y30
G1 F1500 E63.50341
G1 F3000 Z1.3
G0 F1800 X76.543 Y78.742 Z1.3
M205 X25 Y25
;TYPE:WALL-OUTER
G1 F3000 Z0.3
G1 F1500 E67.50341
G1 F1800 X75.972 Y78.668 E67.53214
G1 X75.444 Y78.448 E67.56067
G1 X74.985 Y78.098 E67.58947
G1 X74.635 Y77.642 E67.61815
G1 X74.414 Y77.11 E67.64689
G1 X74.344 Y76.567 E67.6742
G1 X74.411 Y75.988 E67.70328
G1 X74.634 Y75.444 E67.73262
G1 X74.986 Y74.984 E67.76151
G1 X75.419 Y74.649 E67.78883
G1 X75.946 Y74.423 E67.81743
G1 X76.541 Y74.339 E67.84741
G1 X77.086 Y74.41 E67.87483
G1 X77.642 Y74.632 E67.9047
G1 X78.099 Y74.983 E67.93345
G1 X78.443 Y75.432 E67.96167
G1 X78.669 Y75.969 E67.99074
G1 X78.742 Y76.541 E68.0195
G1 X78.672 Y77.094 E68.04731
G1 X78.449 Y77.642 E68.07683
G1 X78.099 Y78.098 E68.10551
G1 X77.642 Y78.449 E68.13426
G1 X77.087 Y78.671 E68.16408
G1 X76.543 Y78.742 E68.19145
M205 X30 Y30
G0 X76.345 Y78.717
G1 F1500 E64.19145
G1 F3000 Z1.3
G0 F1800 X86.542 Y97.743 Z1.3
M205 X25 Y25
G1 F3000 Z0.3
G1 F1500 E68.19145
G1 F1800 X85.997 Y97.671 E68.21888
G1 X85.442 Y97.449 E68.2487
G1 X84.985 Y97.098 E68.27745
G1 X84.635 Y96.642 E68.30613
G1 X84.423 Y96.132 E68.33368
G1 X84.343 Y95.553 E68.36284
G1 X84.414 Y94.976 E68.39185
G1 X84.626 Y94.461 E68.41963
G1 X84.984 Y93.984 E68.44939
G1 X85.441 Y93.633 E68.47813
G1 X85.988 Y93.411 E68.50759
G1 X86.542 Y93.34 E68.53545
G1 X87.086 Y93.41 E68.56282
G1 X87.642 Y93.632 E68.59268
G1 X88.1 Y93.984 E68.6215
G1 X88.458 Y94.461 E68.65126
G1 X88.671 Y94.971 E68.67883
G1 X88.74 Y95.567 E68.70876
G1 X88.67 Y96.11 E68.73608
G1 X88.449 Y96.642 E68.76482
G1 X88.099 Y97.098 E68.7935
G1 X87.643 Y97.448 E68.82218
G1 X87.095 Y97.67 E68.85167
