;FLAVOR:Marlin
;TIME:1919
;Filament used: 3.6287m
;Layer height: 0.2
;MINX:95.006
;MINY:107.005
;MINZ:0.3
;MAXX:154.59
;MAXY:137.623
;MAXZ:47.9
;Generated with Cura_SteamEngine 5.4.0
M140 S55
M105
M190 S55
M104 S210
M105
M109 S210
M82 ;absolute extrusion mode
START_PRINT
G92 E0
G92 E0
G1 F1500 E-4
;LAYER_COUNT:239
;LAYER:0
M107
M204 S10000
M205 X30 Y30
G0 F1800 X98.409 Y114.592 Z0.3
M205 X25 Y25
;TYPE:SKIRT
G1 F1500 E0
G1 F1800 X99.257 Y114.104 E0.04881
G1 X100.07 Y113.864 E0.0911
G1 X124.217 Y112.393 E1.29804
G1 X124.834 Y112.379 E1.32883
G1 X125.428 Y112.39 E1.35847
G1 X126.397 Y112.448 E1.4069
G1 X126.97 Y112.511 E1.43565
G1 X127.717 Y112.626 E1.47336
G1 X128.527 Y112.78 E1.5145
G1 X129.365 Y112.999 E1.55771
G1 X129.953 Y113.173 E1.5883
G1 X130.625 Y113.402 E1.62372
G1 X131.358 Y113.691 E1.66303
G1 X132.172 Y114.06 E1.70762
G1 X132.791 Y114.376 E1.74229
G1 X133.582 Y114.831 E1.78782
G1 X134.393 Y115.356 E1.83602
G1 X135.024 Y115.815 E1.87495
G1 X135.566 Y116.246 E1.90949
G1 X136.095 Y116.701 E1.9443
G1 X136.585 Y117.162 E1.97787
G1 X137.273 Y117.88 E2.02748
G1 X137.707 Y118.38 E2.06051
G1 X138.06 Y118.815 E2.08846
G1 X138.501 Y119.406 E2.12525
G1 X139.074 Y120.262 E2.17664
G1 X139.401 Y120.817 E2.20878
G1 X139.703 Y121.603 E2.25079
G1 X139.792 Y122.446 E2.29308
G1 X139.597 Y123.498 E2.34646
G1 X139.043 Y124.417 E2.39999
G1 X138.575 Y125.122 E2.44221
G1 X138.228 Y125.596 E2.47152
G1 X137.87 Y126.055 E2.50056
G1 X137.327 Y126.689 E2.5422
G1 X136.761 Y127.293 E2.5835
G1 X136.058 Y127.96 E2.63185
G1 X135.35 Y128.561 E2.67818
G1 X134.86 Y128.938 E2.70903
G1 X134.186 Y129.416 E2.75025
G1 X133.655 Y129.759 E2.78179
G1 X132.797 Y130.253 E2.83118
G1 X132.214 Y130.551 E2.86385
G1 X131.555 Y130.856 E2.90008
G1 X130.603 Y131.244 E2.95136
G1 X129.496 Y131.596 E3.00932
G1 X128.937 Y131.747 E3.03821
G1 X128.262 Y131.901 E3.07275
G1 X127.682 Y132.01 E3.10219
G1 X126.881 Y132.131 E3.1426
G1 X126.009 Y132.213 E3.1863
G1 X125.169 Y132.248 E3.22825
G1 X124.317 Y132.24 E3.27075
G1 X123.026 Y132.169 E3.33526
G1 X100.052 Y130.763 E4.48358
G1 X99.162 Y130.486 E4.53008
G1 X98.356 Y129.983 E4.57748
G1 X97.765 Y129.322 E4.62172
G1 X97.341 Y128.54 E4.6661
G1 X97.114 Y127.487 E4.71984
G1 X97.12 Y117.07 E5.23955
G1 X97.376 Y115.988 E5.29502
G1 X97.801 Y115.268 E5.33673
G1 X98.409 Y114.592 E5.38209
M205 X30 Y30
G0 X98.663 Y114.908
M205 X25 Y25
G1 X99.417 Y114.474 E5.42549
G1 X100.142 Y114.26 E5.46321
G1 X124.226 Y112.793 E6.66699
G1 X124.827 Y112.779 E6.69698
G1 X125.404 Y112.789 E6.72577
G1 X126.353 Y112.846 E6.77321
G1 X126.926 Y112.909 E6.80196
G1 X127.642 Y113.019 E6.8381
G1 X128.452 Y113.173 E6.87924
G1 X129.251 Y113.382 E6.92044
G1 X129.824 Y113.552 E6.95026
G1 X130.496 Y113.781 E6.98568
G1 X131.193 Y114.055 E7.02305
G1 X131.99 Y114.416 E7.0667
G1 X132.592 Y114.723 E7.10041
G1 X133.365 Y115.167 E7.14488
G1 X134.158 Y115.68 E7.192
G1 X134.775 Y116.128 E7.23004
G1 X135.305 Y116.549 E7.26381
G1 X135.821 Y116.993 E7.29778
G1 X136.296 Y117.439 E7.33028
G1 X136.971 Y118.142 E7.3789
G1 X137.396 Y118.632 E7.41127
G1 X137.749 Y119.067 E7.43921
G1 X138.169 Y119.629 E7.47422
G1 X138.729 Y120.465 E7.52442
G1 X139.056 Y121.02 E7.55656
G1 X139.31 Y121.695 E7.59254
G1 X139.388 Y122.432 E7.62951
G1 X139.217 Y123.353 E7.67625
G1 X138.71 Y124.196 E7.72532
G1 X138.252 Y124.886 E7.76664
G1 X137.913 Y125.35 E7.79531
G1 X137.566 Y125.795 E7.82346
G1 X137.035 Y126.415 E7.86419
G1 X136.469 Y127.019 E7.90549
G1 X135.799 Y127.655 E7.95157
G1 X135.106 Y128.244 E7.99695
G1 X134.629 Y128.612 E8.02701
G1 X133.969 Y129.08 E8.06737
G1 X133.455 Y129.412 E8.0979
G1 X132.597 Y129.906 E8.14729
G1 X132.046 Y130.188 E8.17817
G1 X131.403 Y130.486 E8.21353
G1 X130.482 Y130.863 E8.26318
G1 X129.392 Y131.21 E8.32025
G1 X128.848 Y131.357 E8.34836
G1 X128.188 Y131.508 E8.38214
G1 X127.622 Y131.615 E8.41088
G1 X126.844 Y131.733 E8.45014
G1 X125.992 Y131.813 E8.49283
G1 X125.172 Y131.848 E8.53378
G1 X124.339 Y131.841 E8.57534
G1 X123.05 Y131.77 E8.63974
G1 X100.126 Y130.367 E9.78557
G1 X99.329 Y130.119 E9.82721
G1 X98.617 Y129.675 E9.86907
G1 X98.095 Y129.091 E9.90815
G1 X97.719 Y128.398 E9.94749
G1 X97.514 Y127.445 E9.99612
G1 X97.52 Y117.116 E10.51144
G1 X97.751 Y116.138 E10.56157
G1 X98.123 Y115.508 E10.59807
G1 X98.663 Y114.908 E10.63834
M205 X30 Y30
G0 X98.917 Y115.224
M205 X25 Y25
G1 X99.577 Y114.844 E10.67634
G1 X100.214 Y114.656 E10.70947
G1 X124.236 Y113.193 E11.91016
G1 X124.821 Y113.179 E11.93935
G1 X125.38 Y113.188 E11.96724
G1 X126.309 Y113.244 E12.01368
G1 X126.882 Y113.307 E12.04244
G1 X127.568 Y113.412 E12.07706
G1 X128.351 Y113.56 E12.11681
G1 X129.137 Y113.765 E12.15734
G1 X129.695 Y113.931 E12.18638
G1 X130.367 Y114.16 E12.2218
G1 X131.028 Y114.419 E12.25722
G1 X131.808 Y114.772 E12.29994
G1 X132.393 Y115.07 E12.33269
G1 X133.148 Y115.503 E12.37611
G1 X133.923 Y116.004 E12.42215
G1 X134.526 Y116.441 E12.45931
G1 X135.044 Y116.852 E12.4923
G1 X135.547 Y117.285 E12.52541
G1 X136.022 Y117.731 E12.55791
G1 X136.669 Y118.404 E12.60449
G1 X137.086 Y118.884 E12.63621
G1 X137.429 Y119.306 E12.66334
G1 X137.837 Y119.852 E12.69735
G1 X138.384 Y120.668 E12.74636
G1 X138.711 Y121.223 E12.7785
G1 X138.917 Y121.788 E12.8085
G1 X138.984 Y122.418 E12.84011
G1 X138.837 Y123.208 E12.8802
G1 X138.376 Y123.975 E12.92484
G1 X137.929 Y124.65 E12.96523
G1 X137.598 Y125.104 E12.99327
G1 X137.262 Y125.535 E13.02053
G1 X136.743 Y126.142 E13.06037
G1 X136.193 Y126.729 E13.10051
G1 X135.54 Y127.35 E13.14546
G1 X134.861 Y127.928 E13.18995
G1 X134.398 Y128.286 E13.21915
G1 X133.752 Y128.744 E13.25866
G1 X133.255 Y129.065 E13.28817
G1 X132.397 Y129.559 E13.33757
G1 X131.878 Y129.825 E13.36666
G1 X131.251 Y130.116 E13.40115
G1 X130.361 Y130.482 E13.44916
G1 X129.288 Y130.824 E13.50535
G1 X128.759 Y130.967 E13.53269
G1 X128.113 Y131.115 E13.56575
G1 X127.562 Y131.22 E13.59373
G1 X126.807 Y131.335 E13.63184
G1 X125.975 Y131.413 E13.67353
G1 X125.175 Y131.448 E13.71348
G1 X124.361 Y131.442 E13.75409
G1 X123.074 Y131.371 E13.81839
G1 X100.2 Y129.971 E14.96172
G1 X99.497 Y129.752 E14.99845
G1 X98.877 Y129.366 E15.03489
G1 X98.423 Y128.857 E15.06892
G1 X98.098 Y128.259 E15.10287
G1 X97.914 Y127.403 E15.14656
G1 X97.92 Y117.162 E15.65748
G1 X98.126 Y116.29 E15.70218
G1 X98.447 Y115.747 E15.73365
G1 X98.917 Y115.224 E15.76873
M205 X30 Y30
G0 X99.425 Y115.855
M205 X25 Y25
G1 X99.893 Y115.585 E15.79569
G1 X100.358 Y115.448 E15.81987
G1 X124.256 Y113.993 E17.01436
G1 X124.81 Y113.979 E17.04201
G1 X125.332 Y113.986 E17.06805
G1 X126.221 Y114.04 E17.11248
G1 X126.794 Y114.103 E17.14124
G1 X127.421 Y114.198 E17.17288
G1 X128.15 Y114.334 E17.20988
G1 X128.909 Y114.531 E17.249
G1 X129.437 Y114.688 E17.27648
G1 X130.076 Y114.906 E17.31017
G1 X130.699 Y115.149 E17.34353
G1 X131.446 Y115.486 E17.38441
G1 X131.995 Y115.764 E17.41512
G1 X132.714 Y116.175 E17.45643
G1 X133.454 Y116.652 E17.50036
G1 X134.03 Y117.068 E17.53581
G1 X134.522 Y117.458 E17.56713
G1 X134.999 Y117.869 E17.59854
G1 X135.474 Y118.315 E17.63105
G1 X136.065 Y118.93 E17.6736
G1 X136.466 Y119.39 E17.70405
G1 X136.789 Y119.786 E17.72954
G1 X137.173 Y120.298 E17.76147
G1 X137.694 Y121.074 E17.8081
G1 X138.021 Y121.629 E17.84024
G1 X138.143 Y121.966 E17.85812
G1 X138.181 Y122.436 E17.88165
G1 X138.077 Y122.918 E17.90625
G1 X137.708 Y123.533 E17.94203
G1 X137.271 Y124.194 E17.98156
G1 X136.968 Y124.612 E18.00732
G1 X136.653 Y125.016 E18.03288
G1 X136.159 Y125.596 E18.07088
G1 X135.641 Y126.149 E18.10869
G1 X135.004 Y126.756 E18.15259
G1 X134.371 Y127.296 E18.1941
G1 X133.935 Y127.634 E18.22162
G1 X133.318 Y128.072 E18.25937
G1 X132.855 Y128.371 E18.28687
G1 X131.997 Y128.865 E18.33626
G1 X131.54 Y129.099 E18.36187
G1 X130.945 Y129.376 E18.39462
G1 X130.086 Y129.731 E18.44099
G1 X129.078 Y130.052 E18.49377
G1 X128.58 Y130.187 E18.51951
G1 X127.962 Y130.329 E18.55115
G1 X127.44 Y130.43 E18.57767
G1 X126.733 Y130.539 E18.61336
G1 X125.939 Y130.613 E18.65314
G1 X125.18 Y130.648 E18.69105
G1 X124.405 Y130.644 E18.72972
G1 X123.122 Y130.573 E18.79382
G1 X100.348 Y129.179 E19.93215
G1 X99.832 Y129.018 E19.95912
G1 X99.396 Y128.746 E19.98476
G1 X99.05 Y128.359 E20.01065
G1 X98.856 Y127.98 E20.0319
G1 X98.714 Y127.319 E20.06563
G1 X98.72 Y117.254 E20.56777
G1 X98.877 Y116.591 E20.60176
G1 X99.042 Y116.281 E20.61928
G1 X99.425 Y115.855 E20.64786
M205 X30 Y30
G0 X99.171 Y115.54
M205 X25 Y25
G1 X99.737 Y115.214 E20.68045
G1 X100.286 Y115.052 E20.70901
G1 X124.246 Y113.593 E21.90659
G1 X124.815 Y113.579 E21.93499
G1 X125.356 Y113.587 E21.96198
G1 X126.265 Y113.642 E22.00741
G1 X126.838 Y113.705 E22.03617
G1 X127.494 Y113.805 E22.06928
G1 X128.25 Y113.947 E22.10765
G1 X129.023 Y114.148 E22.1475
G1 X129.566 Y114.309 E22.17576
G1 X130.221 Y114.533 E22.21029
G1 X130.863 Y114.784 E22.24469
G1 X131.627 Y115.129 E22.28651
G1 X132.194 Y115.417 E22.31823
G1 X132.931 Y115.839 E22.36061
G1 X133.688 Y116.328 E22.40557
G1 X134.278 Y116.755 E22.4419
G1 X134.783 Y117.155 E22.47404
G1 X135.273 Y117.577 E22.5063
G1 X135.748 Y118.023 E22.53881
G1 X136.367 Y118.667 E22.58338
G1 X136.776 Y119.137 E22.61446
G1 X137.109 Y119.546 E22.64077
G1 X137.505 Y120.075 E22.67374
G1 X138.039 Y120.871 E22.72156
G1 X138.366 Y121.426 E22.7537
G1 X138.519 Y121.83 E22.77525
G1 X138.58 Y122.404 E22.80405
G1 X138.457 Y123.063 E22.8375
G1 X138.042 Y123.754 E22.87771
G1 X137.595 Y124.429 E22.9181
G1 X137.283 Y124.858 E22.94456
G1 X136.958 Y125.275 E22.97094
G1 X136.451 Y125.869 E23.0099
G1 X135.917 Y126.439 E23.04887
G1 X135.264 Y127.06 E23.09383
G1 X134.616 Y127.612 E23.1363
G1 X134.167 Y127.96 E23.16464
G1 X133.535 Y128.408 E23.20329
G1 X133.055 Y128.718 E23.23179
G1 X132.197 Y129.212 E23.28119
G1 X131.709 Y129.462 E23.30854
G1 X131.098 Y129.746 E23.34216
G1 X130.239 Y130.101 E23.38853
G1 X129.183 Y130.438 E23.44383
G1 X128.67 Y130.577 E23.47035
G1 X128.038 Y130.722 E23.5027
G1 X127.501 Y130.825 E23.52998
G1 X126.77 Y130.937 E23.56687
G1 X125.957 Y131.013 E23.60761
G1 X125.178 Y131.048 E23.64651
G1 X124.383 Y131.043 E23.68618
G1 X123.098 Y130.972 E23.75038
G1 X100.274 Y129.575 E24.89121
G1 X99.665 Y129.385 E24.92304
G1 X99.135 Y129.055 E24.95418
G1 X98.752 Y128.626 E24.98288
G1 X98.477 Y128.12 E25.01161
G1 X98.314 Y127.361 E25.05034
G1 X98.32 Y117.208 E25.55687
G1 X98.501 Y116.443 E25.59609
G1 X98.745 Y116.014 E25.62071
G1 X99.171 Y115.54 E25.65251
M205 X30 Y30
G1 F1500 E21.65251
;MESH:3DBenchy.3mf
G0 F1800 X100.447 Y116.063
G0 X113.689 Y118.939
G0 X114.005 Y119.11
G0 X114.338 Y119.401
G0 X114.577 Y119.767
G0 X115.498 Y123.972
G0 X115.48 Y124.654
G0 X115.58 Y125.165
G0 X115.792 Y125.479
G0 X116.136 Y125.663
G0 X120.574 Y126.034
G0 X126.691 Y126.353
G0 X126.792 Y126.531
M205 X25 Y25
;TYPE:WALL-INNER
G1 F1500 E25.65251
G1 F1220.3 X126.985 Y126.418 E25.66897
G1 F1454.5 X127.578 Y126.327 E25.70601
G1 F1800 X127.783 Y126.175 E25.71874
G1 X128.041 Y125.501 E25.75475
G1 X128.238 Y125.027 E25.78035
G1 X128.011 Y124.454 E25.8111
G1 X127.305 Y122.564 E25.91176
G1 X126.946 Y121.687 E25.95904
G1 X126.603 Y122.306 E25.99434
G1 X126.251 Y122.87 E26.02751
G1 X126.2 Y123.039 E26.03632
G1 X126.669 Y123.867 E26.08379
G1 X126.957 Y124.354 E26.11202
G1 X127.081 Y124.725 E26.13154
G1 X127.043 Y125.332 E26.16188
G1 F1610.7 X126.797 Y125.769 E26.18984
G1 F1328.4 X126.666 Y125.924 E26.20356
G1 F1220.3 X126.51 Y126.017 E26.21692
G1 F1454.5 X125.925 Y126.01 E26.25304
G1 F1800 X125.569 Y125.908 E26.27152
G1 X125.373 Y125.785 E26.28306
G1 X125.174 Y125.58 E26.29732
G1 X124.921 Y125.166 E26.32152
G1 X124.642 Y125.575 E26.34622
G1 X124.316 Y125.871 E26.36819
G1 X123.889 Y125.993 E26.39035
G1 X123.471 Y125.926 E26.41147
G1 X123.055 Y125.637 E26.43674
G1 X122.956 Y125.487 E26.4457
G1 X122.518 Y125.972 E26.47831
G1 X122.226 Y126.14 E26.49512
G1 X121.665 Y126.275 E26.5239
G1 X121.116 Y126.21 E26.55148
G1 X120.729 Y126.036 E26.57265
G1 X120.452 Y125.822 E26.59012
G1 X120.191 Y125.486 E26.61134
G1 X120.024 Y125.007 E26.63665
G1 X119.624 Y125.328 E26.66224
G1 X119.301 Y125.507 E26.68066
G1 X118.641 Y125.733 E26.71547
G1 X117.771 Y125.801 E26.759
G1 X116.842 Y125.792 E26.80535
G1 X116.198 Y125.819 E26.83751
G1 X115.947 Y125.747 E26.85054
G1 X115.747 Y125.634 E26.862
G1 X115.596 Y125.479 E26.87279
G1 X115.419 Y125.173 E26.89043
G1 X115.322 Y124.675 E26.91574
G1 F1323.5 X115.188 Y124.148 E26.95264
G1 X114.898 Y124.518 E26.98454
G1 F1800 X114.836 Y124.665 E26.99249
G1 X114.474 Y125.181 E27.02394
G1 X113.972 Y125.614 E27.05702
G1 X113.418 Y125.853 E27.08712
G1 X112.966 Y125.949 E27.11017
G1 X112.319 Y125.967 E27.14246
G1 X111.758 Y125.893 E27.17069
G1 X111.272 Y125.732 E27.19624
G1 X110.909 Y125.51 E27.21746
G1 X110.635 Y125.217 E27.23748
G1 X110.451 Y124.81 E27.25976
G1 X110.412 Y124.403 E27.28016
G1 X110.471 Y124.101 E27.29551
G1 X110.577 Y123.885 E27.30752
G1 X110.761 Y123.663 E27.3219
G1 X111.078 Y123.479 E27.34019
G1 F1782.2 X111.488 Y123.396 E27.36127
G1 F1734.9 X111.654 Y123.403 E27.36987
G1 F1659 X112.182 Y123.541 E27.39941
G1 F1603.6 X112.604 Y123.837 E27.42827
G1 F1589.4 X112.728 Y123.795 E27.43567
G1 X112.789 Y123.576 E27.44852
G1 X112.657 Y123.324 E27.46459
G1 F1603.6 X112.366 Y123.138 E27.48393
G1 F1659 X111.76 Y122.996 E27.51762
G1 F1751.8 X111.369 Y122.754 E27.54119
G1 F1800 X111.215 Y122.552 E27.55387
G1 X111.104 Y122.247 E27.57006
G1 X111.124 Y121.761 E27.59433
G1 X111.272 Y121.39 E27.61425
G1 X111.499 Y121.131 E27.63144
G1 X111.311 Y121.123 E27.64082
G1 X110.892 Y120.925 E27.66394
G1 X110.759 Y120.804 E27.67291
G1 X110.446 Y120.312 E27.70201
G1 X110.382 Y120.452 E27.70969
G1 X110.229 Y120.618 E27.72095
G1 X109.985 Y120.785 E27.7357
G1 X109.346 Y120.943 E27.76854
G1 X108.643 Y120.909 E27.80365
G1 X108.629 Y124.873 E28.00142
G1 X108.467 Y125.32 E28.02514
G1 X108.231 Y125.585 E28.04284
G1 X107.999 Y125.728 E28.05644
G1 X107.694 Y125.816 E28.07228
G1 X107.351 Y125.81 E28.08939
G1 X106.957 Y125.679 E28.11011
G1 X106.757 Y125.537 E28.12235
G1 X106.571 Y125.293 E28.13765
G1 X106.472 Y124.944 E28.15575
G1 X106.503 Y124.338 E28.18602
G1 X106.49 Y121.431 E28.33106
G1 X106.52 Y120.902 E28.35749
G1 X106.289 Y120.894 E28.36902
G1 X105.663 Y120.969 E28.40048
G1 X105.193 Y120.855 E28.42461
G1 X104.998 Y120.731 E28.43613
G1 X104.73 Y120.378 E28.45825
G1 X104.672 Y120.598 E28.4696
G1 X104.488 Y120.923 E28.48823
G1 X104.231 Y121.152 E28.5054
G1 X104.042 Y121.246 E28.51593
G1 X103.534 Y121.302 E28.54143
G1 X103.094 Y121.166 E28.56441
G1 X102.484 Y120.822 E28.59935
G1 X102.279 Y120.793 E28.60968
G1 X102.124 Y120.82 E28.61753
G1 X101.881 Y120.937 E28.63098
G1 X101.654 Y121.21 E28.64869
G1 X101.556 Y121.478 E28.66293
G1 X101.47 Y122.238 E28.70109
G1 X101.515 Y122.884 E28.7334
G1 X101.597 Y123.207 E28.75002
G1 X101.777 Y123.525 E28.76825
G1 X101.931 Y123.653 E28.77824
G1 X102.178 Y123.752 E28.79152
G1 X102.356 Y123.775 E28.80047
G1 X102.661 Y123.728 E28.81587
G1 X103.141 Y123.348 E28.84641
G1 X103.608 Y123.243 E28.87029
G1 X104.189 Y123.399 E28.90031
G1 X104.576 Y123.745 E28.9262
G1 X104.708 Y123.956 E28.93862
G1 X104.774 Y124.376 E28.95983
G1 X104.706 Y124.615 E28.97223
G1 X104.426 Y125.129 E29.00143
G1 X104.114 Y125.443 E29.02351
G1 X103.642 Y125.741 E29.05136
G1 X102.957 Y125.936 E29.0869
G1 X102.257 Y125.969 E29.12186
G1 X101.677 Y125.9 E29.151
G1 X101.209 Y125.759 E29.17538
G1 X100.613 Y125.434 E29.20925
G1 X100.235 Y125.108 E29.23416
G1 X99.836 Y124.62 E29.2656
G1 X99.579 Y124.108 E29.29418
G1 X99.516 Y123.901 E29.30498
G1 X99.515 Y127.253 E29.47221
G1 X99.62 Y127.725 E29.49634
G1 X99.724 Y127.921 E29.50741
G1 X99.923 Y128.138 E29.52209
G1 X100.183 Y128.295 E29.53725
